;FLAVOR:Repetier
;TIME:2799
;Generated with Cura_SteamEngine 2.6.2
M104 S203
M109 S203
; -- START GCODE --
G21                     ;set units to millimetres
G90                     ;set to absolute positioning
M106 S0                 ;set fan speed to zero (turned off)
G28 X0 Y0               ;move to the X/Y origin (Home)
G28 Z0                  ;move to the Z origin (Home)
G1 Z15.0 F1200          ;move Z to position 15.0 mm
G92 E0                  ;zero the extruded length
G1 E20 F200             ;extrude 20mm of feed stock
G92 E0                  ;zero the extruded length again
G1 F7200                ;set feedrate to 120 mm/s
; -- end of START GCODE --
;LAYER_COUNT:67
;LAYER:0
M107
G0 F3600 X60.425 Y111.916 Z0.2
;TYPE:SKIRT
G1 F1560 X61.143 Y111.586 E0.02628
G1 X61.89 Y111.331 E0.05254
G1 X62.659 Y111.152 E0.0788
G1 X63.443 Y111.052 E0.10508
G1 X64.038 Y111.029 E0.12489
G1 X143.804 Y111.029 E2.77792
G1 X144.593 Y111.069 E2.80419
G1 X145.373 Y111.188 E2.83043
G1 X146.138 Y111.386 E2.85672
G1 X146.878 Y111.66 E2.88296
G1 X147.587 Y112.008 E2.90923
G1 X148.258 Y112.426 E2.93553
G1 X148.882 Y112.909 E2.96177
G1 X149.319 Y113.314 E2.98159
G1 X149.436 Y113.431 E2.98709
G1 X149.966 Y114.017 E3.01337
G1 X150.433 Y114.653 E3.03961
G1 X150.834 Y115.333 E3.06587
G1 X151.164 Y116.051 E3.09215
G1 X151.419 Y116.798 E3.11841
G1 X151.598 Y117.567 E3.14467
G1 X151.698 Y118.351 E3.17095
G1 X151.721 Y118.946 E3.19076
G1 X151.721 Y148.712 E4.18078
G1 X151.681 Y149.501 E4.20706
G1 X151.562 Y150.281 E4.2333
G1 X151.364 Y151.046 E4.25958
G1 X151.09 Y151.786 E4.28583
G1 X150.742 Y152.495 E4.3121
G1 X150.324 Y153.166 E4.33839
G1 X149.841 Y153.79 E4.36463
G1 X149.436 Y154.227 E4.38445
G1 X149.319 Y154.344 E4.38995
G1 X148.733 Y154.874 E4.41623
G1 X148.097 Y155.341 E4.44248
G1 X147.417 Y155.742 E4.46873
G1 X146.699 Y156.072 E4.49502
G1 X145.952 Y156.327 E4.52127
G1 X145.183 Y156.506 E4.54753
G1 X144.399 Y156.606 E4.57382
G1 X143.804 Y156.629 E4.59362
G1 X64.038 Y156.629 E7.24665
G1 X63.249 Y156.589 E7.27293
G1 X62.469 Y156.47 E7.29917
G1 X61.704 Y156.272 E7.32545
G1 X60.964 Y155.998 E7.3517
G1 X60.255 Y155.65 E7.37797
G1 X59.584 Y155.232 E7.40426
G1 X58.96 Y154.749 E7.43051
G1 X58.523 Y154.344 E7.45032
G1 X58.406 Y154.227 E7.45583
G1 X57.876 Y153.641 E7.48211
G1 X57.409 Y153.005 E7.50835
G1 X57.008 Y152.325 E7.53461
G1 X56.678 Y151.607 E7.56089
G1 X56.423 Y150.86 E7.58714
G1 X56.244 Y150.091 E7.6134
G1 X56.144 Y149.307 E7.63969
G1 X56.121 Y148.712 E7.65949
G1 X56.121 Y118.946 E8.64951
G1 X56.161 Y118.157 E8.67579
G1 X56.28 Y117.377 E8.70203
G1 X56.478 Y116.612 E8.72832
G1 X56.752 Y115.872 E8.75456
G1 X57.1 Y115.163 E8.78083
G1 X57.518 Y114.492 E8.80712
G1 X58.001 Y113.868 E8.83337
G1 X58.406 Y113.431 E8.85319
G1 X58.523 Y113.314 E8.85869
G1 X59.109 Y112.784 E8.88497
G1 X59.745 Y112.317 E8.91121
G1 X60.425 Y111.916 E8.93747
G0 F3600 X60.664 Y112.243
G1 F1560 X61.366 Y111.928 E8.96306
G1 X62.097 Y111.688 E8.98865
G1 X62.848 Y111.525 E9.01421
G1 X63.613 Y111.441 E9.03981
G1 X64.038 Y111.429 E9.05395
G1 X143.804 Y111.429 E11.70698
G1 X144.572 Y111.469 E11.73256
G1 X145.332 Y111.588 E11.75814
G1 X146.075 Y111.786 E11.78372
G1 X146.794 Y112.06 E11.80931
G1 X147.48 Y112.407 E11.83488
G1 X148.127 Y112.823 E11.86046
G1 X148.727 Y113.304 E11.88604
G1 X149.037 Y113.596 E11.9002
G1 X149.154 Y113.713 E11.90571
G1 X149.668 Y114.285 E11.93128
G1 X150.121 Y114.907 E11.95688
G1 X150.507 Y115.572 E11.98245
G1 X150.822 Y116.274 E12.00804
G1 X151.062 Y117.005 E12.03363
G1 X151.225 Y117.756 E12.05919
G1 X151.309 Y118.521 E12.08479
G1 X151.321 Y118.946 E12.09893
G1 X151.321 Y148.712 E13.08895
G1 X151.281 Y149.48 E13.11453
G1 X151.162 Y150.24 E13.14011
G1 X150.964 Y150.983 E13.16569
G1 X150.69 Y151.702 E13.19128
G1 X150.343 Y152.388 E13.21685
G1 X149.927 Y153.035 E13.24243
G1 X149.446 Y153.635 E13.26801
G1 X149.154 Y153.945 E13.28218
G1 X149.037 Y154.062 E13.28768
G1 X148.465 Y154.576 E13.31326
G1 X147.843 Y155.029 E13.33885
G1 X147.178 Y155.415 E13.36442
G1 X146.476 Y155.73 E13.39001
G1 X145.745 Y155.97 E13.4156
G1 X144.994 Y156.133 E13.44116
G1 X144.229 Y156.217 E13.46676
G1 X143.804 Y156.229 E13.4809
G1 X64.038 Y156.229 E16.13393
G1 X63.27 Y156.189 E16.15951
G1 X62.51 Y156.07 E16.18509
G1 X61.767 Y155.872 E16.21067
G1 X61.048 Y155.598 E16.23626
G1 X60.362 Y155.251 E16.26183
G1 X59.715 Y154.835 E16.28741
G1 X59.115 Y154.354 E16.31299
G1 X58.805 Y154.062 E16.32716
G1 X58.688 Y153.945 E16.33266
G1 X58.174 Y153.373 E16.35824
G1 X57.721 Y152.751 E16.38383
G1 X57.335 Y152.086 E16.4094
G1 X57.02 Y151.384 E16.43499
G1 X56.78 Y150.653 E16.46058
G1 X56.617 Y149.902 E16.48614
G1 X56.533 Y149.137 E16.51174
G1 X56.521 Y148.712 E16.52588
G1 X56.521 Y118.946 E17.5159
G1 X56.561 Y118.178 E17.54148
G1 X56.68 Y117.418 E17.56707
G1 X56.878 Y116.675 E17.59264
G1 X57.152 Y115.956 E17.61823
G1 X57.499 Y115.27 E17.6438
G1 X57.915 Y114.623 E17.66939
G1 X58.396 Y114.023 E17.69496
G1 X58.688 Y113.713 E17.70913
G1 X58.805 Y113.596 E17.71463
G1 X59.377 Y113.082 E17.74021
G1 X59.999 Y112.629 E17.7658
G1 X60.664 Y112.243 E17.79138
G0 F3600 X60.901 Y112.571
G1 F1560 X61.587 Y112.272 E17.81627
G1 X62.301 Y112.048 E17.84115
G1 X63.034 Y111.901 E17.86602
G1 X64.038 Y111.829 E17.8995
G1 X143.804 Y111.829 E20.55253
G1 X144.551 Y111.869 E20.57741
G1 X145.289 Y111.988 E20.60227
G1 X146.011 Y112.186 E20.62717
G1 X146.707 Y112.459 E20.65204
G1 X147.37 Y112.806 E20.67693
G1 X147.993 Y113.221 E20.70182
G1 X148.754 Y113.879 E20.73528
G1 X148.871 Y113.996 E20.74079
G1 X149.371 Y114.553 E20.76568
G1 X149.808 Y115.159 E20.79053
G1 X150.179 Y115.809 E20.81543
G1 X150.478 Y116.495 E20.84031
G1 X150.702 Y117.209 E20.8652
G1 X150.849 Y117.942 E20.89007
G1 X150.921 Y118.946 E20.92355
G1 X150.921 Y148.712 E21.91357
G1 X150.881 Y149.459 E21.93845
G1 X150.762 Y150.197 E21.96331
G1 X150.564 Y150.919 E21.98821
G1 X150.291 Y151.615 E22.01308
G1 X149.944 Y152.278 E22.03797
G1 X149.529 Y152.901 E22.06287
G1 X148.871 Y153.662 E22.09633
G1 X148.754 Y153.779 E22.10183
G1 X148.197 Y154.279 E22.12672
G1 X147.591 Y154.716 E22.15157
G1 X146.941 Y155.087 E22.17647
G1 X146.255 Y155.386 E22.20136
G1 X145.541 Y155.61 E22.22625
G1 X144.808 Y155.757 E22.25111
G1 X143.804 Y155.829 E22.28459
G1 X64.038 Y155.829 E24.93762
G1 X63.291 Y155.789 E24.9625
G1 X62.553 Y155.67 E24.98736
G1 X61.831 Y155.472 E25.01226
G1 X61.135 Y155.199 E25.03713
G1 X60.472 Y154.852 E25.06202
G1 X59.849 Y154.437 E25.08692
G1 X59.088 Y153.779 E25.12038
G1 X58.971 Y153.662 E25.12588
G1 X58.471 Y153.105 E25.15077
G1 X58.034 Y152.499 E25.17562
G1 X57.663 Y151.849 E25.20052
G1 X57.364 Y151.163 E25.22541
G1 X57.14 Y150.449 E25.25029
G1 X56.993 Y149.716 E25.27516
G1 X56.921 Y148.712 E25.30864
G1 X56.921 Y118.946 E26.29866
G1 X56.961 Y118.199 E26.32354
G1 X57.08 Y117.461 E26.3484
G1 X57.278 Y116.739 E26.3733
G1 X57.551 Y116.043 E26.39817
G1 X57.898 Y115.38 E26.42306
G1 X58.313 Y114.757 E26.44796
G1 X58.971 Y113.996 E26.48142
G1 X59.088 Y113.879 E26.48692
G1 X59.645 Y113.379 E26.51182
G1 X60.251 Y112.942 E26.53667
G1 X60.901 Y112.571 E26.56156
G0 F3600 X61.137 Y112.901
G1 F1560 X61.806 Y112.618 E26.58572
G1 X62.502 Y112.41 E26.60988
G1 X63.217 Y112.28 E26.63405
G1 X64.038 Y112.229 E26.66141
G1 X143.804 Y112.229 E29.31444
G1 X144.529 Y112.269 E29.33859
G1 X145.246 Y112.388 E29.36276
G1 X145.945 Y112.586 E29.38692
G1 X146.618 Y112.859 E29.41108
G1 X147.257 Y113.204 E29.43523
G1 X147.854 Y113.618 E29.4594
G1 X148.471 Y114.162 E29.48676
G1 X148.588 Y114.279 E29.49226
G1 X149.072 Y114.82 E29.5164
G1 X149.495 Y115.411 E29.54058
G1 X149.849 Y116.045 E29.56473
G1 X150.132 Y116.714 E29.58889
G1 X150.34 Y117.41 E29.61305
G1 X150.47 Y118.125 E29.63722
G1 X150.521 Y118.946 E29.66458
G1 X150.521 Y148.712 E30.6546
G1 X150.481 Y149.437 E30.67875
G1 X150.362 Y150.154 E30.70292
G1 X150.164 Y150.853 E30.72709
G1 X149.891 Y151.526 E30.75124
G1 X149.546 Y152.165 E30.7754
G1 X149.132 Y152.762 E30.79956
G1 X148.588 Y153.379 E30.82692
G1 X148.471 Y153.496 E30.83242
G1 X147.93 Y153.98 E30.85656
G1 X147.339 Y154.403 E30.88074
G1 X146.705 Y154.757 E30.90489
G1 X146.036 Y155.04 E30.92905
G1 X145.34 Y155.248 E30.95321
G1 X144.625 Y155.378 E30.97738
G1 X143.804 Y155.429 E31.00474
G1 X64.038 Y155.429 E33.65777
G1 X63.313 Y155.389 E33.68192
G1 X62.596 Y155.27 E33.70609
G1 X61.897 Y155.072 E33.73026
G1 X61.224 Y154.799 E33.75441
G1 X60.585 Y154.454 E33.77856
G1 X59.988 Y154.04 E33.80273
G1 X59.371 Y153.496 E33.83009
G1 X59.254 Y153.379 E33.83559
G1 X58.77 Y152.838 E33.85973
G1 X58.347 Y152.247 E33.88391
G1 X57.993 Y151.613 E33.90806
G1 X57.71 Y150.944 E33.93222
G1 X57.502 Y150.248 E33.95638
G1 X57.372 Y149.533 E33.98055
G1 X57.321 Y148.712 E34.00791
G1 X57.321 Y118.946 E34.99793
G1 X57.361 Y118.221 E35.02208
G1 X57.48 Y117.504 E35.04625
G1 X57.678 Y116.805 E35.07042
G1 X57.951 Y116.132 E35.09457
G1 X58.296 Y115.493 E35.11873
G1 X58.71 Y114.896 E35.14289
G1 X59.254 Y114.279 E35.17025
G1 X59.371 Y114.162 E35.17575
G1 X59.912 Y113.678 E35.19989
G1 X60.503 Y113.255 E35.22407
G1 X61.137 Y112.901 E35.24822
G0 F3600 X61.372 Y113.232
G1 F1560 X62.023 Y112.965 E35.27162
G1 X62.701 Y112.775 E35.29504
G1 X63.396 Y112.662 E35.31846
G1 X64.038 Y112.629 E35.33984
G1 X143.804 Y112.629 E37.99287
G1 X144.507 Y112.669 E38.01629
G1 X145.201 Y112.788 E38.03971
G1 X145.876 Y112.986 E38.06311
G1 X146.525 Y113.258 E38.08651
G1 X147.139 Y113.603 E38.10993
G1 X147.71 Y114.014 E38.13333
G1 X148.188 Y114.445 E38.15474
G1 X148.305 Y114.562 E38.16024
G1 X148.774 Y115.087 E38.18366
G1 X149.18 Y115.662 E38.20707
G1 X149.518 Y116.28 E38.2305
G1 X149.785 Y116.931 E38.2539
G1 X149.975 Y117.609 E38.27732
G1 X150.088 Y118.304 E38.30074
G1 X150.121 Y118.946 E38.32212
G1 X150.121 Y148.712 E39.31214
G1 X150.081 Y149.415 E39.33556
G1 X149.962 Y150.109 E39.35898
G1 X149.764 Y150.784 E39.38238
G1 X149.492 Y151.433 E39.40578
G1 X149.147 Y152.047 E39.42921
G1 X148.736 Y152.618 E39.45261
G1 X148.305 Y153.096 E39.47401
G1 X148.188 Y153.213 E39.47952
G1 X147.663 Y153.682 E39.50293
G1 X147.088 Y154.088 E39.52634
G1 X146.47 Y154.426 E39.54977
G1 X145.819 Y154.693 E39.57317
G1 X145.141 Y154.883 E39.59659
G1 X144.446 Y154.996 E39.62001
G1 X143.804 Y155.029 E39.64139
G1 X64.038 Y155.029 E42.29442
G1 X63.335 Y154.989 E42.31784
G1 X62.641 Y154.87 E42.34126
G1 X61.966 Y154.672 E42.36466
G1 X61.317 Y154.4 E42.38806
G1 X60.703 Y154.055 E42.41149
G1 X60.132 Y153.644 E42.43489
G1 X59.654 Y153.213 E42.45629
G1 X59.537 Y153.096 E42.4618
G1 X59.068 Y152.571 E42.48521
G1 X58.662 Y151.996 E42.50862
G1 X58.324 Y151.378 E42.53205
G1 X58.057 Y150.727 E42.55545
G1 X57.867 Y150.049 E42.57887
G1 X57.754 Y149.354 E42.60229
G1 X57.721 Y148.712 E42.62367
G1 X57.721 Y118.946 E43.61369
G1 X57.761 Y118.243 E43.63711
G1 X57.88 Y117.549 E43.66053
G1 X58.078 Y116.874 E43.68393
G1 X58.35 Y116.225 E43.70733
G1 X58.695 Y115.611 E43.73076
G1 X59.106 Y115.04 E43.75416
G1 X59.537 Y114.562 E43.77557
G1 X59.654 Y114.445 E43.78107
G1 X60.179 Y113.976 E43.80448
G1 X60.754 Y113.57 E43.8279
G1 X61.372 Y113.232 E43.85132
G0 F3600 X61.604 Y113.564
G1 F1560 X62.238 Y113.315 E43.87398
G1 X62.897 Y113.142 E43.89664
G1 X63.571 Y113.048 E43.91927
G1 X64.038 Y113.029 E43.93482
G1 X143.804 Y113.029 E46.58785
G1 X144.484 Y113.069 E46.6105
G1 X145.154 Y113.188 E46.63314
G1 X145.806 Y113.385 E46.65579
G1 X146.43 Y113.657 E46.67843
G1 X147.018 Y114.001 E46.70109
G1 X147.562 Y114.411 E46.72375
G1 X147.905 Y114.728 E46.73928
G1 X148.022 Y114.845 E46.74478
G1 X148.475 Y115.354 E46.76745
G1 X148.864 Y115.912 E46.79007
G1 X149.186 Y116.512 E46.81272
G1 X149.435 Y117.146 E46.83537
G1 X149.608 Y117.805 E46.85803
G1 X149.702 Y118.479 E46.88067
G1 X149.721 Y118.946 E46.89621
G1 X149.721 Y148.712 E47.88623
G1 X149.681 Y149.392 E47.90889
G1 X149.562 Y150.062 E47.93152
G1 X149.365 Y150.714 E47.95418
G1 X149.093 Y151.338 E47.97682
G1 X148.749 Y151.926 E47.99948
G1 X148.339 Y152.47 E48.02213
G1 X148.022 Y152.813 E48.03767
G1 X147.905 Y152.93 E48.04317
G1 X147.396 Y153.383 E48.06583
G1 X146.838 Y153.772 E48.08846
G1 X146.238 Y154.094 E48.11111
G1 X145.604 Y154.343 E48.13376
G1 X144.945 Y154.516 E48.15642
G1 X144.271 Y154.61 E48.17906
G1 X143.804 Y154.629 E48.1946
G1 X64.038 Y154.629 E50.84763
G1 X63.358 Y154.589 E50.87029
G1 X62.688 Y154.47 E50.89292
G1 X62.036 Y154.273 E50.91557
G1 X61.412 Y154.001 E50.93821
G1 X60.824 Y153.657 E50.96087
G1 X60.28 Y153.247 E50.98353
G1 X59.937 Y152.93 E50.99906
G1 X59.82 Y152.813 E51.00456
G1 X59.367 Y152.304 E51.02723
G1 X58.978 Y151.746 E51.04985
G1 X58.656 Y151.146 E51.0725
G1 X58.407 Y150.512 E51.09516
G1 X58.234 Y149.853 E51.11782
G1 X58.14 Y149.179 E51.14045
G1 X58.121 Y148.712 E51.156
G1 X58.121 Y118.946 E52.14602
G1 X58.161 Y118.266 E52.16867
G1 X58.28 Y117.596 E52.19131
G1 X58.477 Y116.944 E52.21396
G1 X58.749 Y116.32 E52.2366
G1 X59.093 Y115.732 E52.25926
G1 X59.503 Y115.188 E52.28192
G1 X59.82 Y114.845 E52.29745
G1 X59.937 Y114.728 E52.30295
G1 X60.446 Y114.275 E52.32562
G1 X61.004 Y113.886 E52.34824
G1 X61.604 Y113.564 E52.37089
G0 F3600 X61.835 Y113.899
G1 F1560 X62.45 Y113.668 E52.39274
G1 X63.089 Y113.513 E52.41461
G1 X64.038 Y113.429 E52.44629
G1 X143.804 Y113.429 E55.09932
G1 X144.46 Y113.469 E55.12118
G1 X145.106 Y113.588 E55.14303
G1 X145.733 Y113.785 E55.16489
G1 X146.331 Y114.057 E55.18674
G1 X146.892 Y114.399 E55.20859
G1 X147.622 Y115.011 E55.24028
G1 X147.739 Y115.128 E55.24578
G1 X148.175 Y115.62 E55.26764
G1 X148.547 Y116.161 E55.28948
G1 X148.851 Y116.743 E55.31132
G1 X149.082 Y117.358 E55.33317
G1 X149.237 Y117.997 E55.35504
G1 X149.321 Y118.946 E55.38673
G1 X149.321 Y148.712 E56.37675
G1 X149.281 Y149.368 E56.39861
G1 X149.162 Y150.014 E56.42045
G1 X148.965 Y150.641 E56.44231
G1 X148.693 Y151.239 E56.46416
G1 X148.351 Y151.8 E56.48602
G1 X147.739 Y152.53 E56.5177
G1 X147.622 Y152.647 E56.5232
G1 X147.13 Y153.083 E56.54507
G1 X146.589 Y153.455 E56.56691
G1 X146.007 Y153.759 E56.58875
G1 X145.392 Y153.99 E56.6106
G1 X144.753 Y154.145 E56.63246
G1 X143.804 Y154.229 E56.66415
G1 X64.038 Y154.229 E59.31718
G1 X63.382 Y154.189 E59.33904
G1 X62.736 Y154.07 E59.36089
G1 X62.109 Y153.873 E59.38275
G1 X61.511 Y153.601 E59.4046
G1 X60.95 Y153.259 E59.42645
G1 X60.22 Y152.647 E59.45813
G1 X60.103 Y152.53 E59.46364
G1 X59.667 Y152.038 E59.4855
G1 X59.295 Y151.497 E59.50734
G1 X58.991 Y150.915 E59.52918
G1 X58.76 Y150.3 E59.55103
G1 X58.605 Y149.661 E59.5729
G1 X58.521 Y148.712 E59.60458
G1 X58.521 Y118.946 E60.59461
G1 X58.561 Y118.29 E60.61646
G1 X58.68 Y117.644 E60.63831
G1 X58.877 Y117.017 E60.66017
G1 X59.149 Y116.419 E60.68202
G1 X59.491 Y115.858 E60.70387
G1 X60.103 Y115.128 E60.73556
G1 X60.22 Y115.011 E60.74106
G1 X60.712 Y114.575 E60.76293
G1 X61.253 Y114.203 E60.78476
G1 X61.835 Y113.899 E60.8066
G0 F3600 X62.064 Y114.235
G1 F1560 X62.659 Y114.023 E60.82761
G1 X63.277 Y113.887 E60.84866
G1 X64.038 Y113.829 E60.87404
G1 X143.804 Y113.829 E63.52707
G1 X144.435 Y113.869 E63.5481
G1 X145.056 Y113.988 E63.56913
G1 X145.656 Y114.185 E63.59013
G1 X146.228 Y114.456 E63.61119
G1 X146.76 Y114.796 E63.63218
G1 X147.34 Y115.293 E63.65759
G1 X147.457 Y115.41 E63.66309
G1 X147.874 Y115.885 E63.68412
G1 X148.229 Y116.408 E63.70514
G1 X148.515 Y116.972 E63.72617
G1 X148.727 Y117.567 E63.74718
G1 X148.863 Y118.185 E63.76823
G1 X148.921 Y118.946 E63.79361
G1 X148.921 Y148.712 E64.78363
G1 X148.881 Y149.343 E64.80466
G1 X148.762 Y149.964 E64.82569
G1 X148.565 Y150.564 E64.8467
G1 X148.294 Y151.136 E64.86775
G1 X147.954 Y151.668 E64.88875
G1 X147.457 Y152.248 E64.91415
G1 X147.34 Y152.365 E64.91966
G1 X146.865 Y152.782 E64.94068
G1 X146.342 Y153.137 E64.9617
G1 X145.778 Y153.423 E64.98273
G1 X145.183 Y153.635 E65.00374
G1 X144.565 Y153.771 E65.02479
G1 X143.804 Y153.829 E65.05017
G1 X64.038 Y153.829 E67.7032
G1 X63.407 Y153.789 E67.72423
G1 X62.786 Y153.67 E67.74526
G1 X62.186 Y153.473 E67.76627
G1 X61.614 Y153.202 E67.78732
G1 X61.082 Y152.862 E67.80832
G1 X60.502 Y152.365 E67.83372
G1 X60.385 Y152.248 E67.83923
G1 X59.968 Y151.773 E67.86025
G1 X59.613 Y151.25 E67.88127
G1 X59.327 Y150.686 E67.9023
G1 X59.115 Y150.091 E67.92331
