;FLAVOR:Repetier
;TIME:7101
;Generated with Cura_SteamEngine 2.6.2
M104 S200
M109 S200
; -- START GCODE --
G21                     ;set units to millimetres
G90                     ;set to absolute positioning
M106 S0                 ;set fan speed to zero (turned off)
G28 X0 Y0               ;move to the X/Y origin (Home)
G28 Z0                  ;move to the Z origin (Home)
G1 Z15.0 F1200          ;move Z to position 15.0 mm
G92 E0                  ;zero the extruded length
G1 E20 F200             ;extrude 20mm of feed stock
G92 E0                  ;zero the extruded length again
G1 F7200                ;set feedrate to 120 mm/s
; -- end of START GCODE --
;LAYER_COUNT:87
;LAYER:0
M107
G0 F3600 X25.752 Y74.247 Z0.2
;TYPE:SKIRT
G1 F1440 X26.499 Y73.992 E0.02625
G1 X27.268 Y73.813 E0.05251
G1 X28.052 Y73.713 E0.0788
G1 X28.655 Y73.69 E0.09887
G1 X58.569 Y73.72 E1.09382
G1 X59.357 Y73.761 E1.12006
G1 X60.138 Y73.881 E1.14634
G1 X60.902 Y74.08 E1.1726
G1 X61.643 Y74.355 E1.19889
G1 X62.351 Y74.703 E1.22513
G1 X63.021 Y75.121 E1.25139
G1 X63.645 Y75.605 E1.27766
G1 X64.074 Y76.002 E1.2971
G1 X81.778 Y93.69 E2.12946
G1 X125.318 Y93.675 E3.57761
G1 X143.06 Y75.971 E4.41125
G1 X143.646 Y75.442 E4.4375
G1 X144.283 Y74.975 E4.46377
G1 X144.964 Y74.575 E4.49004
G1 X145.682 Y74.246 E4.51631
G1 X146.429 Y73.991 E4.54256
G1 X147.199 Y73.813 E4.56885
G1 X147.982 Y73.714 E4.5951
G1 X148.568 Y73.692 E4.6146
G1 X178.412 Y73.69 E5.60722
G1 X179.201 Y73.73 E5.6335
G1 X179.982 Y73.849 E5.65977
G1 X180.746 Y74.047 E5.68602
G1 X181.487 Y74.321 E5.7123
G1 X182.196 Y74.669 E5.73857
G1 X182.866 Y75.086 E5.76482
G1 X183.491 Y75.569 E5.79109
G1 X183.928 Y75.975 E5.81093
G1 X184.045 Y76.092 E5.81643
G1 X184.575 Y76.678 E5.84271
G1 X185.042 Y77.314 E5.86895
G1 X185.443 Y77.994 E5.89521
G1 X185.773 Y78.712 E5.92149
G1 X186.028 Y79.459 E5.94775
G1 X186.207 Y80.228 E5.97401
G1 X186.307 Y81.012 E6.00029
G1 X186.33 Y81.622 E6.0206
G1 X186.28 Y108.477 E6.9138
G1 X186.239 Y109.265 E6.94004
G1 X186.118 Y110.045 E6.9663
G1 X185.901 Y110.864 E6.99448
G1 X185.521 Y112.038 E7.03552
G1 X185.24 Y112.776 E7.06178
G1 X184.765 Y113.687 E7.09595
G1 X184.438 Y114.225 E7.11689
G1 X183.995 Y114.878 E7.14314
G1 X183.299 Y115.679 E7.17843
G1 X169.975 Y129.055 E7.80638
G1 X169.39 Y129.585 E7.83263
G1 X168.921 Y129.941 E7.85222
G1 X168.335 Y130.351 E7.876
G1 X167.665 Y130.77 E7.90229
G1 X167.133 Y131.041 E7.92215
G1 X166.505 Y131.331 E7.94515
G1 X165.772 Y131.626 E7.97143
G1 X165.256 Y131.784 E7.98938
G1 X164.585 Y131.964 E8.01249
G1 X163.813 Y132.129 E8.03874
G1 X163.028 Y132.216 E8.06501
G1 X162.568 Y132.23 E8.08032
G1 X45.194 Y132.29 E11.9842
G1 X44.504 Y132.26 E12.00717
G1 X43.802 Y132.198 E12.03061
G1 X43.02 Y132.089 E12.05687
G1 X42.459 Y131.96 E12.07601
G1 X41.787 Y131.779 E12.09916
G1 X41.036 Y131.535 E12.12542
G1 X40.527 Y131.32 E12.1438
G1 X39.897 Y131.027 E12.16691
G1 X39.198 Y130.658 E12.1932
G1 X38.691 Y130.328 E12.21332
G1 X38.111 Y129.919 E12.23693
G1 X37.489 Y129.432 E12.2632
G1 X37.091 Y129.06 E12.28132
G1 X23.953 Y115.922 E12.89929
G1 X23.423 Y115.336 E12.92557
G1 X23.074 Y114.875 E12.9448
G1 X22.668 Y114.294 E12.96838
G1 X22.249 Y113.624 E12.99466
G1 X21.983 Y113.1 E13.0142
G1 X21.693 Y112.473 E13.03718
G1 X21.398 Y111.741 E13.06343
G1 X21.238 Y111.218 E13.08162
G1 X21.056 Y110.539 E13.105
G1 X20.89 Y109.767 E13.13127
G1 X20.804 Y108.982 E13.15753
G1 X20.79 Y108.537 E13.17234
G1 X20.73 Y81.624 E14.06747
G1 X20.768 Y80.836 E14.09371
G1 X20.886 Y80.055 E14.11998
G1 X21.082 Y79.29 E14.14625
G1 X21.355 Y78.549 E14.17251
G1 X21.701 Y77.839 E14.19878
G1 X22.117 Y77.168 E14.22504
G1 X22.598 Y76.542 E14.2513
G1 X23.015 Y76.092 E14.2717
G1 X23.132 Y75.975 E14.27721
G1 X23.718 Y75.445 E14.30349
G1 X24.354 Y74.978 E14.32973
G1 X25.034 Y74.577 E14.35599
G1 X25.752 Y74.247 E14.38227
G0 F3600 X25.975 Y74.589
G1 F1440 X26.706 Y74.349 E14.40786
G1 X27.457 Y74.186 E14.43342
G1 X28.222 Y74.102 E14.45902
G1 X28.654 Y74.09 E14.47339
G1 X58.568 Y74.12 E15.46833
G1 X59.336 Y74.161 E15.49391
G1 X60.096 Y74.281 E15.51951
G1 X60.839 Y74.479 E15.54508
G1 X61.558 Y74.754 E15.57068
G1 X62.244 Y75.102 E15.59627
G1 X62.89 Y75.519 E15.62184
G1 X63.49 Y76 E15.64742
G1 X63.791 Y76.285 E15.66121
G1 X81.612 Y94.09 E16.49907
G1 X125.483 Y94.075 E17.95823
G1 X143.342 Y76.254 E18.79737
G1 X143.914 Y75.739 E18.82297
G1 X144.536 Y75.287 E18.84854
G1 X145.202 Y74.902 E18.87413
G1 X145.904 Y74.588 E18.89971
G1 X146.635 Y74.349 E18.92529
G1 X147.387 Y74.187 E18.95087
G1 X148.152 Y74.104 E18.97646
G1 X148.569 Y74.092 E18.99034
G1 X178.413 Y74.09 E19.98296
G1 X179.181 Y74.13 E20.00853
G1 X179.94 Y74.249 E20.03409
G1 X180.684 Y74.447 E20.05969
G1 X181.403 Y74.721 E20.08529
G1 X182.089 Y75.068 E20.11085
G1 X182.736 Y75.484 E20.13644
G1 X183.336 Y75.965 E20.16202
G1 X183.646 Y76.257 E20.17618
G1 X183.763 Y76.374 E20.18168
G1 X184.277 Y76.946 E20.20726
G1 X184.73 Y77.568 E20.23285
G1 X185.116 Y78.233 E20.25843
G1 X185.431 Y78.935 E20.28402
G1 X185.671 Y79.666 E20.30961
G1 X185.834 Y80.417 E20.33517
G1 X185.918 Y81.182 E20.36077
G1 X185.93 Y81.621 E20.37537
G1 X185.88 Y108.476 E21.26857
G1 X185.839 Y109.244 E21.29416
G1 X185.718 Y110.003 E21.31972
G1 X185.52 Y110.741 E21.34513
G1 X185.14 Y111.915 E21.38617
G1 X184.866 Y112.633 E21.41173
G1 X184.424 Y113.48 E21.44351
G1 X184.097 Y114.018 E21.46445
G1 X183.663 Y114.653 E21.49003
G1 X183.016 Y115.396 E21.5228
G1 X169.692 Y128.772 E22.15075
G1 X169.121 Y129.288 E22.17634
G1 X168.691 Y129.613 E22.19427
G1 X168.105 Y130.023 E22.21806
G1 X167.453 Y130.431 E22.24364
G1 X166.965 Y130.678 E22.26183
G1 X166.337 Y130.968 E22.28484
G1 X165.623 Y131.254 E22.31042
G1 X165.152 Y131.397 E22.32679
G1 X164.481 Y131.577 E22.3499
G1 X163.729 Y131.738 E22.37548
G1 X162.964 Y131.819 E22.40106
G1 X162.568 Y131.83 E22.41424
G1 X45.194 Y131.89 E26.31811
G1 X44.539 Y131.861 E26.33992
G1 X43.837 Y131.799 E26.36336
G1 X43.075 Y131.692 E26.38895
G1 X42.563 Y131.573 E26.40644
G1 X41.891 Y131.392 E26.42958
G1 X41.16 Y131.154 E26.45515
G1 X40.695 Y130.957 E26.47195
G1 X40.065 Y130.664 E26.49506
G1 X39.386 Y130.304 E26.52062
G1 X38.921 Y130.002 E26.53906
G1 X38.341 Y129.593 E26.56267
G1 X37.737 Y129.117 E26.58824
G1 X37.373 Y128.778 E26.60479
G1 X24.235 Y115.64 E27.22276
G1 X23.721 Y115.068 E27.24834
G1 X23.402 Y114.646 E27.26593
G1 X22.996 Y114.065 E27.28951
G1 X22.589 Y113.412 E27.3151
G1 X22.346 Y112.932 E27.33299
G1 X22.056 Y112.305 E27.35597
G1 X21.769 Y111.592 E27.38153
G1 X21.624 Y111.115 E27.39812
G1 X21.442 Y110.436 E27.4215
G1 X21.282 Y109.684 E27.44707
G1 X21.19 Y108.536 E27.48537
G1 X21.13 Y81.623 E28.3805
G1 X21.168 Y80.855 E28.40608
G1 X21.286 Y80.095 E28.43166
G1 X21.482 Y79.351 E28.45725
G1 X21.754 Y78.632 E28.48282
G1 X22.1 Y77.945 E28.5084
G1 X22.515 Y77.297 E28.534
G1 X22.994 Y76.696 E28.55956
G1 X23.297 Y76.374 E28.57426
G1 X23.414 Y76.257 E28.57977
G1 X23.986 Y75.743 E28.60534
G1 X24.608 Y75.29 E28.63094
G1 X25.273 Y74.904 E28.65651
G1 X25.975 Y74.589 E28.6821
G0 F3600 X26.196 Y74.933
G1 F1440 X26.91 Y74.709 E28.70699
G1 X27.643 Y74.562 E28.73186
G1 X28.654 Y74.49 E28.76557
G1 X58.568 Y74.52 E29.76051
G1 X59.315 Y74.561 E29.78539
G1 X60.053 Y74.681 E29.81026
G1 X60.775 Y74.879 E29.83516
G1 X61.471 Y75.153 E29.86004
G1 X62.133 Y75.5 E29.8849
G1 X62.755 Y75.916 E29.90979
G1 X63.508 Y76.568 E29.94292
G1 X81.447 Y94.49 E30.78631
G1 X125.648 Y94.475 E32.25645
G1 X143.625 Y76.537 E33.10111
G1 X144.182 Y76.038 E33.12598
G1 X144.789 Y75.6 E33.15088
G1 X145.439 Y75.231 E33.17574
G1 X146.125 Y74.932 E33.20063
G1 X146.839 Y74.709 E33.22551
G1 X147.573 Y74.563 E33.2504
G1 X148.569 Y74.492 E33.28361
G1 X178.413 Y74.49 E34.27623
G1 X179.16 Y74.53 E34.30111
G1 X179.898 Y74.649 E34.32597
G1 X180.62 Y74.847 E34.35087
G1 X181.316 Y75.12 E34.37574
G1 X181.979 Y75.466 E34.40061
G1 X182.601 Y75.881 E34.42548
G1 X183.363 Y76.54 E34.45899
G1 X183.48 Y76.657 E34.46449
G1 X183.98 Y77.214 E34.48939
G1 X184.417 Y77.82 E34.51424
G1 X184.788 Y78.47 E34.53913
G1 X185.087 Y79.156 E34.56402
G1 X185.311 Y79.87 E34.58891
G1 X185.458 Y80.603 E34.61377
G1 X185.53 Y81.62 E34.64768
G1 X185.48 Y108.475 E35.54089
G1 X185.439 Y109.222 E35.56577
G1 X185.318 Y109.96 E35.59064
G1 X185.14 Y110.618 E35.61331
G1 X184.76 Y111.792 E35.65436
G1 X184.492 Y112.49 E35.67922
G1 X184.082 Y113.272 E35.70859
G1 X183.755 Y113.81 E35.72953
G1 X183.333 Y114.427 E35.75439
G1 X182.732 Y115.114 E35.78475
G1 X169.408 Y128.49 E36.4127
G1 X168.853 Y128.991 E36.43757
G1 X168.462 Y129.286 E36.45386
G1 X167.876 Y129.696 E36.47764
G1 X167.241 Y130.091 E36.50252
G1 X166.798 Y130.315 E36.51903
G1 X166.17 Y130.605 E36.54203
G1 X165.475 Y130.882 E36.56692
G1 X165.049 Y131.011 E36.58172
G1 X164.378 Y131.191 E36.60483
G1 X163.646 Y131.346 E36.62972
G1 X162.568 Y131.43 E36.66568
G1 X45.194 Y131.49 E40.56955
G1 X44.574 Y131.463 E40.59019
G1 X43.872 Y131.401 E40.61363
G1 X43.132 Y131.295 E40.6385
G1 X42.667 Y131.187 E40.65438
G1 X41.995 Y131.006 E40.67752
G1 X41.285 Y130.773 E40.70238
G1 X40.864 Y130.594 E40.71759
G1 X40.234 Y130.301 E40.7407
G1 X39.574 Y129.95 E40.76556
G1 X39.152 Y129.675 E40.78232
G1 X38.572 Y129.266 E40.80592
G1 X37.984 Y128.803 E40.83081
G1 X37.656 Y128.495 E40.84578
G1 X24.518 Y115.357 E41.46375
G1 X24.018 Y114.8 E41.48865
G1 X23.73 Y114.417 E41.50458
G1 X23.324 Y113.836 E41.52816
G1 X22.929 Y113.2 E41.55306
G1 X22.709 Y112.765 E41.56927
G1 X22.419 Y112.138 E41.59225
G1 X22.141 Y111.443 E41.61715
G1 X22.011 Y111.011 E41.63215
G1 X21.829 Y110.332 E41.65553
G1 X21.674 Y109.6 E41.68042
G1 X21.59 Y108.536 E41.71592
G1 X21.53 Y81.623 E42.61105
G1 X21.568 Y80.876 E42.63593
G1 X21.686 Y80.137 E42.66082
G1 X21.882 Y79.415 E42.6857
G1 X22.154 Y78.718 E42.71059
G1 X22.499 Y78.054 E42.73547
G1 X22.912 Y77.431 E42.76033
G1 X23.58 Y76.657 E42.79434
G1 X23.697 Y76.54 E42.79984
G1 X24.254 Y76.04 E42.82474
G1 X24.86 Y75.603 E42.84959
G1 X25.51 Y75.232 E42.87448
G1 X26.196 Y74.933 E42.89937
G0 F3600 X26.415 Y75.279
G1 F1440 X27.111 Y75.071 E42.92353
G1 X27.826 Y74.941 E42.9477
G1 X28.654 Y74.89 E42.97529
G1 X58.568 Y74.92 E43.97024
G1 X59.293 Y74.961 E43.99439
G1 X60.009 Y75.081 E44.01854
G1 X60.708 Y75.279 E44.0427
G1 X61.381 Y75.553 E44.06687
G1 X62.019 Y75.899 E44.09101
G1 X62.616 Y76.313 E44.11517
G1 X63.226 Y76.851 E44.14222
G1 X81.282 Y94.89 E44.99112
G1 X125.813 Y94.874 E46.47223
G1 X143.907 Y76.82 E47.32237
G1 X144.449 Y76.336 E47.34654
G1 X145.04 Y75.915 E47.37068
G1 X145.675 Y75.561 E47.39486
G1 X146.344 Y75.278 E47.41902
G1 X147.04 Y75.072 E47.44316
G1 X147.755 Y74.942 E47.46733
G1 X148.569 Y74.892 E47.49446
G1 X178.413 Y74.89 E48.48707
G1 X179.138 Y74.93 E48.51122
G1 X179.854 Y75.049 E48.53536
G1 X180.553 Y75.247 E48.55953
G1 X181.226 Y75.52 E48.58368
G1 X181.865 Y75.865 E48.60783
G1 X182.463 Y76.278 E48.63201
G1 X183.08 Y76.823 E48.65939
G1 X183.197 Y76.94 E48.66489
G1 X183.681 Y77.481 E48.68903
G1 X184.104 Y78.072 E48.71321
G1 X184.458 Y78.706 E48.73736
G1 X184.741 Y79.375 E48.76152
G1 X184.949 Y80.071 E48.78568
G1 X185.079 Y80.786 E48.80985
G1 X185.13 Y81.619 E48.83761
G1 X185.08 Y108.474 E49.73081
G1 X185.039 Y109.199 E49.75496
G1 X184.918 Y109.916 E49.77915
G1 X184.759 Y110.494 E49.79909
G1 X184.379 Y111.668 E49.84013
G1 X184.118 Y112.346 E49.86429
G1 X183.74 Y113.064 E49.89128
G1 X183.413 Y113.602 E49.91222
G1 X183.002 Y114.201 E49.93638
G1 X182.449 Y114.832 E49.96429
G1 X169.125 Y128.208 E50.59223
G1 X168.585 Y128.693 E50.61637
G1 X168.233 Y128.958 E50.63103
G1 X167.647 Y129.368 E50.65481
G1 X167.029 Y129.751 E50.679
G1 X166.63 Y129.952 E50.69386
G1 X166.002 Y130.242 E50.71686
G1 X165.327 Y130.51 E50.74102
G1 X164.945 Y130.625 E50.75429
G1 X164.274 Y130.805 E50.77739
G1 X163.563 Y130.954 E50.80155
G1 X162.567 Y131.03 E50.83478
G1 X45.193 Y131.09 E54.73865
G1 X44.609 Y131.064 E54.7581
G1 X43.907 Y131.002 E54.78154
G1 X43.188 Y130.899 E54.80569
G1 X42.771 Y130.801 E54.81994
G1 X42.099 Y130.62 E54.84309
G1 X41.41 Y130.393 E54.86722
G1 X41.033 Y130.231 E54.88086
G1 X40.403 Y129.938 E54.90397
G1 X39.762 Y129.596 E54.92814
G1 X39.382 Y129.348 E54.94323
G1 X38.802 Y128.939 E54.96684
G1 X38.233 Y128.488 E54.99098
G1 X37.939 Y128.212 E55.0044
G1 X24.801 Y115.074 E55.62237
G1 X24.317 Y114.533 E55.64651
G1 X24.058 Y114.187 E55.66089
G1 X23.652 Y113.606 E55.68446
G1 X23.269 Y112.989 E55.70862
G1 X23.072 Y112.597 E55.72321
G1 X22.782 Y111.97 E55.74618
G1 X22.514 Y111.295 E55.77034
G1 X22.397 Y110.908 E55.78379
G1 X22.215 Y110.229 E55.80717
G1 X22.066 Y109.518 E55.83133
G1 X21.99 Y108.535 E55.86412
G1 X21.93 Y81.622 E56.75925
G1 X21.968 Y80.896 E56.78343
G1 X22.086 Y80.18 E56.80757
G1 X22.282 Y79.48 E56.83175
G1 X22.554 Y78.806 E56.85592
G1 X22.898 Y78.167 E56.88006
G1 X23.31 Y77.569 E56.90421
G1 X23.863 Y76.94 E56.93207
G1 X23.98 Y76.823 E56.93757
G1 X24.521 Y76.339 E56.96171
G1 X25.112 Y75.916 E56.98589
G1 X25.746 Y75.562 E57.01004
G1 X26.415 Y75.279 E57.0342
G0 F3600 X26.632 Y75.626
G1 F1440 X27.31 Y75.436 E57.05762
G1 X28.005 Y75.323 E57.08104
G1 X28.653 Y75.29 E57.10262
G1 X58.567 Y75.32 E58.09756
G1 X59.27 Y75.361 E58.12098
G1 X59.964 Y75.481 E58.14441
G1 X60.639 Y75.679 E58.1678
G1 X61.288 Y75.952 E58.19122
G1 X61.902 Y76.297 E58.21465
G1 X62.472 Y76.709 E58.23804
G1 X62.943 Y77.134 E58.25914
G1 X81.116 Y95.29 E59.11354
G1 X125.979 Y95.274 E60.60569
G1 X144.19 Y77.103 E61.46134
G1 X144.715 Y76.635 E61.48473
G1 X145.291 Y76.229 E61.50817
G1 X145.909 Y75.892 E61.53158
G1 X146.561 Y75.626 E61.555
G1 X147.239 Y75.436 E61.57842
G1 X147.934 Y75.325 E61.60183
G1 X148.569 Y75.292 E61.62298
G1 X178.413 Y75.29 E62.6156
G1 X179.115 Y75.33 E62.63898
G1 X179.809 Y75.449 E62.6624
G1 X180.485 Y75.646 E62.68582
G1 X181.134 Y75.919 E62.70924
G1 X181.748 Y76.263 E62.73265
G1 X182.319 Y76.675 E62.75607
G1 X182.797 Y77.106 E62.77747
G1 X182.914 Y77.223 E62.78298
G1 X183.383 Y77.748 E62.80639
G1 X183.789 Y78.323 E62.8298
G1 X184.127 Y78.941 E62.85323
G1 X184.394 Y79.592 E62.87663
G1 X184.584 Y80.27 E62.90005
G1 X184.697 Y80.965 E62.92347
G1 X184.73 Y81.619 E62.94525
G1 X184.68 Y108.474 E63.83845
G1 X184.639 Y109.176 E63.86184
G1 X184.518 Y109.87 E63.88527
G1 X184.379 Y110.371 E63.90257
G1 X183.999 Y111.545 E63.94361
G1 X183.744 Y112.202 E63.96705
G1 X183.398 Y112.856 E63.99166
G1 X183.071 Y113.394 E64.0126
G1 X182.672 Y113.974 E64.03601
G1 X182.166 Y114.55 E64.06151
G1 X168.842 Y127.926 E64.68946
G1 X168.317 Y128.395 E64.71287
G1 X168.003 Y128.63 E64.72592
G1 X167.417 Y129.04 E64.7497
G1 X166.818 Y129.41 E64.77312
G1 X166.462 Y129.589 E64.78637
G1 X165.834 Y129.879 E64.80938
G1 X165.179 Y130.137 E64.83279
G1 X164.841 Y130.238 E64.84453
G1 X164.17 Y130.418 E64.86763
G1 X163.481 Y130.562 E64.89105
G1 X162.567 Y130.63 E64.92153
G1 X45.193 Y130.69 E68.8254
G1 X44.645 Y130.666 E68.84365
G1 X43.943 Y130.604 E68.86709
G1 X43.246 Y130.502 E68.89052
G1 X42.876 Y130.415 E68.90316
G1 X42.204 Y130.234 E68.92631
G1 X41.535 Y130.012 E68.94975
G1 X41.201 Y129.869 E68.96184
G1 X40.571 Y129.576 E68.98494
G1 X39.951 Y129.243 E69.00835
G1 X39.613 Y129.021 E69.0218
G1 X39.033 Y128.612 E69.04541
G1 X38.482 Y128.174 E69.06882
G1 X38.222 Y127.929 E69.0807
G1 X25.084 Y114.791 E69.69867
G1 X24.615 Y114.266 E69.72209
G1 X24.386 Y113.958 E69.73485
G1 X23.98 Y113.377 E69.75843
G1 X23.61 Y112.778 E69.78184
G1 X23.435 Y112.429 E69.79483
G1 X23.145 Y111.802 E69.8178
G1 X22.886 Y111.147 E69.84123
G1 X22.783 Y110.804 E69.85314
G1 X22.601 Y110.125 E69.87652
G1 X22.458 Y109.436 E69.89993
G1 X22.39 Y108.534 E69.93001
G1 X22.33 Y81.621 E70.82515
G1 X22.368 Y80.918 E70.84856
G1 X22.486 Y80.224 E70.87198
G1 X22.682 Y79.548 E70.89539
G1 X22.953 Y78.898 E70.91881
G1 X23.296 Y78.283 E70.94223
G1 X23.707 Y77.711 E70.96566
G1 X24.146 Y77.223 E70.98749
G1 X24.263 Y77.106 E70.99299
G1 X24.788 Y76.637 E71.01641
G1 X25.363 Y76.231 E71.03982
G1 X25.981 Y75.893 E71.06325
G1 X26.632 Y75.626 E71.08665
G0 F3600 X26.847 Y75.976
G1 F1440 X27.506 Y75.803 E71.10931
G1 X28.18 Y75.709 E71.13194
G1 X28.653 Y75.69 E71.14769
G1 X58.567 Y75.72 E72.14263
G1 X59.246 Y75.761 E72.16526
G1 X59.917 Y75.881 E72.18793
G1 X60.568 Y76.078 E72.21055
G1 X61.192 Y76.351 E72.23321
