;FLAVOR:Repetier
;TIME:8486
;Generated with Cura_SteamEngine 2.6.2
M104 S200
M109 S200
; -- START GCODE --
G21                     ;set units to millimetres
G90                     ;set to absolute positioning
M106 S0                 ;set fan speed to zero (turned off)
G28 X0 Y0               ;move to the X/Y origin (Home)
G28 Z0                  ;move to the Z origin (Home)
G1 Z15.0 F1200          ;move Z to position 15.0 mm
G92 E0                  ;zero the extruded length
G1 E20 F200             ;extrude 20mm of feed stock
G92 E0                  ;zero the extruded length again
G1 F7200                ;set feedrate to 120 mm/s
; -- end of START GCODE --
;LAYER_COUNT:187
;LAYER:0
M107
G0 F3600 X33.665 Y76.927 Z0.2
;TYPE:SKIRT
G1 F1440 X34.412 Y76.672 E0.02625
G1 X35.181 Y76.493 E0.05251
G1 X35.965 Y76.393 E0.0788
G1 X36.568 Y76.37 E0.09887
G1 X66.482 Y76.4 E1.09382
G1 X67.27 Y76.441 E1.12006
G1 X68.051 Y76.561 E1.14634
G1 X68.815 Y76.76 E1.1726
G1 X69.556 Y77.035 E1.19889
G1 X70.264 Y77.383 E1.22513
G1 X70.934 Y77.801 E1.25139
G1 X71.558 Y78.285 E1.27766
G1 X71.987 Y78.682 E1.2971
G1 X89.69 Y96.37 E2.12944
G1 X133.205 Y96.359 E3.57676
G1 X150.897 Y78.684 E4.40853
G1 X151.483 Y78.155 E4.43479
G1 X152.12 Y77.688 E4.46106
G1 X152.801 Y77.287 E4.48735
G1 X153.518 Y76.958 E4.51358
G1 X154.266 Y76.703 E4.53987
G1 X155.035 Y76.524 E4.56613
G1 X155.818 Y76.424 E4.59238
G1 X156.402 Y76.402 E4.61182
G1 X186.318 Y76.37 E5.60683
G1 X187.106 Y76.409 E5.63307
G1 X187.887 Y76.528 E5.65935
G1 X188.652 Y76.725 E5.68562
G1 X189.393 Y76.998 E5.71189
G1 X190.102 Y77.345 E5.73814
G1 X190.773 Y77.762 E5.76442
G1 X191.398 Y78.244 E5.79067
G1 X191.841 Y78.655 E5.81077
G1 X191.958 Y78.772 E5.81627
G1 X192.488 Y79.358 E5.84255
G1 X192.955 Y79.994 E5.8688
G1 X193.356 Y80.674 E5.89505
G1 X193.686 Y81.392 E5.92134
G1 X193.941 Y82.139 E5.94759
G1 X194.12 Y82.908 E5.97385
G1 X194.22 Y83.692 E6.00014
G1 X194.243 Y84.302 E6.02044
G1 X194.193 Y111.157 E6.91364
G1 X194.152 Y111.945 E6.93989
G1 X194.031 Y112.725 E6.96614
G1 X193.813 Y113.548 E6.99446
G1 X193.43 Y114.729 E7.03575
G1 X193.148 Y115.467 E7.06203
G1 X192.67 Y116.384 E7.09642
G1 X192.345 Y116.917 E7.11719
G1 X191.9 Y117.569 E7.14344
G1 X191.628 Y117.908 E7.1579
G1 X191.214 Y118.395 E7.17916
G1 X190.782 Y118.863 E7.20034
G1 X177.866 Y131.757 E7.80735
G1 X177.279 Y132.286 E7.83363
G1 X176.818 Y132.634 E7.85284
G1 X176.239 Y133.038 E7.87633
G1 X175.57 Y133.456 E7.90256
G1 X175.053 Y133.719 E7.92186
G1 X174.431 Y134.007 E7.94465
G1 X173.699 Y134.302 E7.9709
G1 X173.168 Y134.465 E7.98938
G1 X172.487 Y134.647 E8.01282
G1 X171.715 Y134.812 E8.03908
G1 X170.93 Y134.898 E8.06535
G1 X170.477 Y134.911 E8.08042
G1 X53.108 Y134.97 E11.98413
G1 X52.428 Y134.941 E12.00677
G1 X51.727 Y134.88 E12.03017
G1 X50.945 Y134.771 E12.05643
G1 X50.368 Y134.639 E12.07612
G1 X49.691 Y134.456 E12.09944
G1 X48.94 Y134.211 E12.12572
G1 X48.432 Y133.997 E12.14405
G1 X47.803 Y133.704 E12.16713
G1 X47.105 Y133.334 E12.1934
G1 X46.606 Y133.011 E12.21317
G1 X46.028 Y132.604 E12.23669
G1 X45.406 Y132.117 E12.26296
G1 X45.004 Y131.741 E12.28127
G1 X31.866 Y118.603 E12.89924
G1 X31.336 Y118.017 E12.92552
G1 X30.985 Y117.552 E12.9449
G1 X30.576 Y116.966 E12.96867
G1 X30.157 Y116.297 E12.99492
G1 X29.893 Y115.776 E13.01435
G1 X29.603 Y115.149 E13.03732
G1 X29.308 Y114.417 E13.06357
G1 X29.145 Y113.883 E13.08214
G1 X28.966 Y113.211 E13.10527
G1 X28.801 Y112.438 E13.13156
G1 X28.716 Y111.653 E13.15782
G1 X28.703 Y111.22 E13.17223
G1 X28.643 Y84.304 E14.06746
G1 X28.681 Y83.516 E14.0937
G1 X28.799 Y82.735 E14.11997
G1 X28.995 Y81.97 E14.14624
G1 X29.268 Y81.229 E14.17251
G1 X29.614 Y80.519 E14.19877
G1 X30.03 Y79.848 E14.22503
G1 X30.511 Y79.222 E14.25129
G1 X30.928 Y78.772 E14.2717
G1 X31.045 Y78.655 E14.2772
G1 X31.631 Y78.125 E14.30348
G1 X32.267 Y77.658 E14.32972
G1 X32.947 Y77.257 E14.35598
G1 X33.665 Y76.927 E14.38226
G0 F3600 X33.888 Y77.269
G1 F1440 X34.619 Y77.029 E14.40785
G1 X35.37 Y76.866 E14.43341
G1 X36.135 Y76.782 E14.45901
G1 X36.567 Y76.77 E14.47338
G1 X66.481 Y76.8 E15.46833
G1 X67.249 Y76.841 E15.49391
G1 X68.009 Y76.961 E15.5195
G1 X68.752 Y77.159 E15.54507
G1 X69.471 Y77.434 E15.57068
G1 X70.157 Y77.782 E15.59626
G1 X70.803 Y78.199 E15.62183
G1 X71.403 Y78.68 E15.64741
G1 X71.704 Y78.965 E15.6612
G1 X89.525 Y96.77 E16.49907
G1 X133.371 Y96.759 E17.95739
G1 X151.18 Y78.967 E18.79467
G1 X151.752 Y78.452 E18.82027
G1 X152.374 Y78 E18.84584
G1 X153.039 Y77.614 E18.87142
G1 X153.741 Y77.3 E18.897
G1 X154.472 Y77.06 E18.92259
G1 X155.224 Y76.898 E18.94817
G1 X155.988 Y76.814 E18.97374
G1 X156.402 Y76.802 E18.98751
G1 X186.318 Y76.77 E19.98252
G1 X187.086 Y76.809 E20.0081
G1 X187.846 Y76.928 E20.03368
G1 X188.59 Y77.125 E20.05928
G1 X189.309 Y77.398 E20.08486
G1 X189.996 Y77.744 E20.11045
G1 X190.643 Y78.16 E20.13603
G1 X191.243 Y78.64 E20.16159
G1 X191.559 Y78.937 E20.17601
G1 X191.676 Y79.054 E20.18151
G1 X192.19 Y79.626 E20.20709
G1 X192.643 Y80.248 E20.23268
G1 X193.029 Y80.913 E20.25826
G1 X193.344 Y81.615 E20.28385
G1 X193.584 Y82.346 E20.30944
G1 X193.747 Y83.097 E20.335
G1 X193.831 Y83.862 E20.3606
G1 X193.843 Y84.301 E20.3752
G1 X193.793 Y111.156 E21.26841
G1 X193.752 Y111.924 E21.29399
G1 X193.631 Y112.683 E21.31955
G1 X193.432 Y113.425 E21.3451
G1 X193.049 Y114.606 E21.38639
G1 X192.774 Y115.324 E21.41197
G1 X192.328 Y116.175 E21.44392
G1 X192.003 Y116.708 E21.46469
G1 X191.569 Y117.343 E21.49027
G1 X191.323 Y117.649 E21.50333
G1 X190.909 Y118.136 E21.52459
G1 X190.499 Y118.58 E21.54469
G1 X177.583 Y131.474 E22.1517
G1 X177.011 Y131.988 E22.17728
G1 X176.589 Y132.306 E22.19485
G1 X176.01 Y132.71 E22.21833
G1 X175.358 Y133.116 E22.24388
G1 X174.885 Y133.356 E22.26152
G1 X174.263 Y133.644 E22.28432
G1 X173.549 Y133.931 E22.30991
G1 X173.065 Y134.078 E22.32674
G1 X172.384 Y134.26 E22.35018
G1 X171.631 Y134.42 E22.37579
G1 X170.866 Y134.501 E22.40137
G1 X170.477 Y134.511 E22.41431
G1 X53.108 Y134.57 E26.31802
G1 X52.462 Y134.542 E26.33953
G1 X51.761 Y134.481 E26.36293
G1 X51 Y134.375 E26.38849
G1 X50.472 Y134.253 E26.40651
G1 X49.795 Y134.07 E26.42984
G1 X49.064 Y133.831 E26.45542
G1 X48.601 Y133.634 E26.47215
G1 X47.972 Y133.341 E26.49523
G1 X47.293 Y132.98 E26.52081
G1 X46.837 Y132.683 E26.53891
G1 X46.259 Y132.276 E26.56242
G1 X45.654 Y131.802 E26.58798
G1 X45.286 Y131.459 E26.60472
G1 X32.148 Y118.321 E27.22269
G1 X31.634 Y117.749 E27.24826
G1 X31.313 Y117.323 E27.26601
G1 X30.904 Y116.737 E27.28977
G1 X30.497 Y116.085 E27.31534
G1 X30.256 Y115.608 E27.33311
G1 X29.966 Y114.981 E27.35609
G1 X29.679 Y114.268 E27.38165
G1 X29.531 Y113.78 E27.39861
G1 X29.352 Y113.108 E27.42174
G1 X29.193 Y112.355 E27.44734
G1 X29.103 Y111.219 E27.48524
G1 X29.043 Y84.303 E28.38048
G1 X29.081 Y83.535 E28.40605
G1 X29.199 Y82.775 E28.43163
G1 X29.395 Y82.031 E28.45722
G1 X29.667 Y81.312 E28.48279
G1 X30.013 Y80.625 E28.50837
G1 X30.428 Y79.977 E28.53397
G1 X30.907 Y79.376 E28.55953
G1 X31.21 Y79.054 E28.57423
G1 X31.327 Y78.937 E28.57974
G1 X31.899 Y78.423 E28.60531
G1 X32.521 Y77.97 E28.63091
G1 X33.186 Y77.584 E28.65648
G1 X33.888 Y77.269 E28.68207
G0 F3600 X34.109 Y77.613
G1 F1440 X34.823 Y77.389 E28.70696
G1 X35.556 Y77.242 E28.73183
G1 X36.567 Y77.17 E28.76554
G1 X66.481 Y77.2 E29.76048
G1 X67.228 Y77.241 E29.78537
G1 X67.966 Y77.361 E29.81023
G1 X68.688 Y77.559 E29.83513
G1 X69.384 Y77.833 E29.86001
G1 X70.046 Y78.18 E29.88487
G1 X70.668 Y78.596 E29.90976
G1 X71.422 Y79.248 E29.94291
G1 X89.36 Y97.17 E30.78629
G1 X133.537 Y97.159 E32.25562
G1 X151.463 Y79.25 E33.0984
G1 X152.019 Y78.75 E33.12327
G1 X152.626 Y78.313 E33.14815
G1 X153.276 Y77.943 E33.17303
G1 X153.962 Y77.644 E33.19792
G1 X154.676 Y77.42 E33.22281
G1 X155.409 Y77.274 E33.24766
G1 X156.403 Y77.202 E33.28081
G1 X186.319 Y77.17 E34.27582
G1 X187.066 Y77.209 E34.3007
G1 X187.804 Y77.328 E34.32556
G1 X188.526 Y77.525 E34.35046
G1 X189.222 Y77.797 E34.37531
G1 X189.886 Y78.143 E34.40021
G1 X190.509 Y78.557 E34.42509
G1 X191.276 Y79.22 E34.45881
G1 X191.393 Y79.337 E34.46432
G1 X191.893 Y79.894 E34.48921
G1 X192.33 Y80.5 E34.51406
G1 X192.701 Y81.15 E34.53895
G1 X193 Y81.836 E34.56384
G1 X193.224 Y82.55 E34.58873
G1 X193.371 Y83.283 E34.6136
G1 X193.443 Y84.3 E34.64751
G1 X193.393 Y111.155 E35.54071
G1 X193.352 Y111.902 E35.56559
G1 X193.231 Y112.64 E35.59047
G1 X193.052 Y113.301 E35.61324
G1 X192.669 Y114.482 E35.65454
G1 X192.4 Y115.181 E35.67945
G1 X191.987 Y115.967 E35.70898
G1 X191.662 Y116.5 E35.72974
G1 X191.018 Y117.39 E35.76628
G1 X190.604 Y117.877 E35.78754
G1 X190.217 Y118.297 E35.80654
G1 X177.301 Y131.191 E36.41355
G1 X176.744 Y131.69 E36.43842
G1 X176.361 Y131.978 E36.45436
G1 X175.782 Y132.382 E36.47784
G1 X175.146 Y132.776 E36.50273
G1 X174.717 Y132.993 E36.51872
G1 X174.095 Y133.281 E36.54151
G1 X173.401 Y133.559 E36.56638
G1 X172.961 Y133.692 E36.58167
G1 X172.28 Y133.874 E36.60511
G1 X171.548 Y134.028 E36.62999
G1 X170.477 Y134.111 E36.66572
G1 X53.108 Y134.17 E40.56943
G1 X52.497 Y134.144 E40.58977
G1 X51.796 Y134.083 E40.61317
G1 X51.055 Y133.978 E40.63807
G1 X50.576 Y133.866 E40.65443
G1 X49.899 Y133.683 E40.67775
G1 X49.189 Y133.45 E40.70261
G1 X48.77 Y133.271 E40.71776
G1 X48.141 Y132.978 E40.74084
G1 X47.481 Y132.627 E40.7657
G1 X47.067 Y132.356 E40.78216
G1 X46.489 Y131.949 E40.80567
G1 X45.901 Y131.487 E40.83054
G1 X45.569 Y131.176 E40.84567
G1 X32.431 Y118.038 E41.46364
G1 X31.931 Y117.481 E41.48854
G1 X31.641 Y117.094 E41.50462
G1 X31.232 Y116.508 E41.52839
G1 X30.837 Y115.873 E41.55327
G1 X30.619 Y115.441 E41.56936
G1 X30.329 Y114.814 E41.59234
G1 X30.051 Y114.119 E41.61723
G1 X29.918 Y113.677 E41.63259
G1 X29.739 Y113.005 E41.65572
G1 X29.585 Y112.273 E41.68059
G1 X29.503 Y111.219 E41.71576
G1 X29.443 Y84.303 E42.61099
G1 X29.481 Y83.556 E42.63587
G1 X29.599 Y82.817 E42.66076
G1 X29.795 Y82.095 E42.68564
G1 X30.067 Y81.398 E42.71052
G1 X30.412 Y80.734 E42.73541
G1 X30.825 Y80.111 E42.76027
G1 X31.493 Y79.337 E42.79428
G1 X31.61 Y79.22 E42.79978
G1 X32.167 Y78.72 E42.82468
G1 X32.773 Y78.283 E42.84953
G1 X33.423 Y77.912 E42.87442
G1 X34.109 Y77.613 E42.89931
G0 F3600 X34.328 Y77.959
G1 F1440 X35.024 Y77.751 E42.92347
G1 X35.739 Y77.621 E42.94764
G1 X36.567 Y77.57 E42.97523
G1 X66.481 Y77.6 E43.97018
G1 X67.206 Y77.641 E43.99433
G1 X67.922 Y77.761 E44.01847
G1 X68.621 Y77.959 E44.04264
G1 X69.294 Y78.233 E44.06681
G1 X69.932 Y78.579 E44.09095
G1 X70.529 Y78.993 E44.11511
G1 X71.139 Y79.531 E44.14216
G1 X89.194 Y97.57 E44.99104
G1 X133.702 Y97.559 E46.47138
G1 X151.745 Y79.533 E47.31967
G1 X152.287 Y79.049 E47.34384
G1 X152.878 Y78.627 E47.36799
G1 X153.512 Y78.272 E47.39216
G1 X154.181 Y77.99 E47.4163
G1 X154.877 Y77.782 E47.44046
G1 X155.592 Y77.653 E47.46463
G1 X156.403 Y77.602 E47.49166
G1 X186.319 Y77.57 E48.48667
G1 X187.044 Y77.609 E48.51082
G1 X187.761 Y77.728 E48.53499
G1 X188.46 Y77.925 E48.55914
G1 X189.133 Y78.197 E48.58329
G1 X189.773 Y78.542 E48.60747
G1 X190.37 Y78.954 E48.6316
G1 X190.993 Y79.503 E48.65921
G1 X191.11 Y79.62 E48.66472
G1 X191.594 Y80.161 E48.68886
G1 X192.017 Y80.752 E48.71303
G1 X192.371 Y81.386 E48.73718
G1 X192.654 Y82.055 E48.76134
G1 X192.862 Y82.751 E48.78551
G1 X192.992 Y83.466 E48.80968
G1 X193.043 Y84.299 E48.83743
G1 X192.993 Y111.154 E49.73064
G1 X192.952 Y111.879 E49.75479
G1 X192.831 Y112.596 E49.77897
G1 X192.671 Y113.178 E49.79905
G1 X192.288 Y114.359 E49.84034
G1 X192.026 Y115.037 E49.86452
G1 X191.645 Y115.759 E49.89167
G1 X191.32 Y116.292 E49.91243
G1 X190.714 Y117.131 E49.94686
G1 X190.3 Y117.618 E49.96812
G1 X189.934 Y118.014 E49.98605
G1 X177.018 Y130.908 E50.59306
G1 X176.476 Y131.392 E50.61723
G1 X176.132 Y131.65 E50.63153
G1 X175.553 Y132.054 E50.65502
G1 X174.935 Y132.436 E50.67918
G1 X174.549 Y132.63 E50.69355
G1 X173.927 Y132.918 E50.71635
G1 X173.252 Y133.187 E50.74052
G1 X172.858 Y133.305 E50.75419
G1 X172.177 Y133.487 E50.77764
G1 X171.466 Y133.636 E50.8018
G1 X170.476 Y133.711 E50.83482
G1 X53.107 Y133.77 E54.73853
G1 X52.532 Y133.745 E54.75768
G1 X51.831 Y133.684 E54.78108
G1 X51.112 Y133.581 E54.80524
G1 X50.681 Y133.48 E54.81996
G1 X50.004 Y133.297 E54.84329
G1 X49.314 Y133.069 E54.86746
G1 X48.939 Y132.909 E54.88102
G1 X48.31 Y132.616 E54.90409
G1 X47.67 Y132.273 E54.92825
G1 X47.297 Y132.029 E54.94307
G1 X46.719 Y131.622 E54.96658
G1 X46.149 Y131.172 E54.99074
G1 X45.852 Y130.893 E55.00429
G1 X32.714 Y117.755 E55.62226
G1 X32.23 Y117.214 E55.6464
G1 X31.969 Y116.865 E55.6609
G1 X31.56 Y116.279 E55.68467
G1 X31.178 Y115.662 E55.7088
G1 X30.982 Y115.273 E55.72329
G1 X30.692 Y114.646 E55.74627
G1 X30.424 Y113.971 E55.77042
G1 X30.304 Y113.574 E55.78422
G1 X30.125 Y112.902 E55.80735
G1 X29.977 Y112.191 E55.8315
G1 X29.903 Y111.218 E55.86396
G1 X29.843 Y84.302 E56.75919
G1 X29.881 Y83.576 E56.78337
G1 X29.999 Y82.86 E56.80751
G1 X30.195 Y82.16 E56.83168
G1 X30.467 Y81.486 E56.85586
G1 X30.811 Y80.847 E56.88
G1 X31.223 Y80.249 E56.90415
G1 X31.776 Y79.62 E56.932
G1 X31.893 Y79.503 E56.93751
G1 X32.434 Y79.019 E56.96165
G1 X33.025 Y78.596 E56.98582
G1 X33.659 Y78.242 E57.00998
G1 X34.328 Y77.959 E57.03414
G0 F3600 X34.545 Y78.306
G1 F1440 X35.223 Y78.116 E57.05755
G1 X35.918 Y78.003 E57.08097
G1 X36.566 Y77.97 E57.10255
G1 X66.48 Y78 E58.0975
G1 X67.183 Y78.041 E58.12092
G1 X67.877 Y78.161 E58.14435
G1 X68.552 Y78.359 E58.16774
G1 X69.201 Y78.632 E58.19116
G1 X69.815 Y78.977 E58.21458
G1 X70.385 Y79.389 E58.23798
G1 X70.856 Y79.814 E58.25908
G1 X89.028 Y97.97 E59.11346
G1 X133.868 Y97.959 E60.60484
G1 X152.028 Y79.816 E61.45863
G1 X152.553 Y79.347 E61.48205
G1 X153.129 Y78.941 E61.50548
G1 X153.746 Y78.603 E61.52888
G1 X154.398 Y78.338 E61.55229
G1 X155.076 Y78.147 E61.57572
G1 X155.771 Y78.035 E61.59913
G1 X156.403 Y78.002 E61.62018
G1 X186.319 Y77.97 E62.61519
G1 X187.022 Y78.009 E62.63861
G1 X187.716 Y78.128 E62.66203
G1 X188.392 Y78.324 E62.68544
G1 X189.042 Y78.596 E62.70888
G1 X189.656 Y78.94 E62.73228
G1 X190.227 Y79.351 E62.75568
G1 X190.71 Y79.786 E62.7773
G1 X190.827 Y79.903 E62.78281
G1 X191.296 Y80.428 E62.80622
G1 X191.702 Y81.003 E62.82963
G1 X192.04 Y81.621 E62.85306
G1 X192.307 Y82.272 E62.87646
G1 X192.497 Y82.95 E62.89988
G1 X192.61 Y83.645 E62.9233
G1 X192.643 Y84.299 E62.94508
G1 X192.593 Y111.154 E63.83828
G1 X192.552 Y111.856 E63.86167
G1 X192.431 Y112.55 E63.8851
G1 X192.291 Y113.055 E63.90253
G1 X191.908 Y114.236 E63.94383
G1 X191.653 Y114.892 E63.96724
G1 X191.304 Y115.551 E63.99204
G1 X190.979 Y116.084 E64.0128
G1 X190.409 Y116.872 E64.04515
G1 X189.995 Y117.359 E64.06641
G1 X189.651 Y117.731 E64.08326
G1 X176.735 Y130.625 E64.69027
G1 X176.21 Y131.093 E64.71367
G1 X175.903 Y131.322 E64.7264
G1 X175.324 Y131.726 E64.74989
G1 X174.725 Y132.095 E64.77329
G1 X174.381 Y132.267 E64.78608
G1 X173.759 Y132.555 E64.80888
G1 X173.104 Y132.814 E64.8323
G1 X172.755 Y132.919 E64.84442
G1 X172.074 Y133.101 E64.86787
G1 X171.384 Y133.244 E64.89131
G1 X170.476 Y133.311 E64.92159
G1 X53.107 Y133.37 E68.8253
G1 X52.567 Y133.347 E68.84327
G1 X51.866 Y133.286 E68.86668
G1 X51.169 Y133.185 E68.8901
G1 X50.785 Y133.094 E68.90323
G1 X50.108 Y132.911 E68.92655
G1 X49.44 Y132.689 E68.94997
G1 X49.108 Y132.546 E68.96199
G1 X48.479 Y132.253 E68.98507
G1 X47.859 Y131.92 E69.00848
G1 X47.527 Y131.702 E69.02169
G1 X46.949 Y131.295 E69.0452
G1 X46.398 Y130.858 E69.06859
G1 X46.135 Y130.61 E69.08061
G1 X32.997 Y117.472 E69.69858
G1 X32.528 Y116.947 E69.722
G1 X32.297 Y116.636 E69.73488
G1 X31.888 Y116.05 E69.75865
G1 X31.518 Y115.451 E69.78207
G1 X31.345 Y115.105 E69.79493
G1 X31.055 Y114.478 E69.81791
G1 X30.796 Y113.823 E69.84134
G1 X30.691 Y113.471 E69.85355
G1 X30.512 Y112.799 E69.87669
G1 X30.37 Y112.109 E69.90012
G1 X30.303 Y111.217 E69.92987
G1 X30.243 Y84.301 E70.8251
G1 X30.281 Y83.598 E70.84852
G1 X30.399 Y82.904 E70.87193
G1 X30.595 Y82.228 E70.89534
G1 X30.866 Y81.578 E70.91876
G1 X31.209 Y80.963 E70.94218
G1 X31.62 Y80.391 E70.96561
G1 X32.059 Y79.903 E70.98744
G1 X32.176 Y79.786 E70.99294
G1 X32.701 Y79.317 E71.01636
G1 X33.276 Y78.911 E71.03977
G1 X33.894 Y78.573 E71.0632
G1 X34.545 Y78.306 E71.0866
G0 F3600 X34.76 Y78.656
