;FLAVOR:Repetier
;TIME:7478
;Generated with Cura_SteamEngine 2.6.2
M104 S205
M109 S205
; -- START GCODE --
G21                     ;set units to millimetres
G90                     ;set to absolute positioning
M106 S0                 ;set fan speed to zero (turned off)
G28 X0 Y0               ;move to the X/Y origin (Home)
G28 Z0                  ;move to the Z origin (Home)
G1 Z15.0 F1200          ;move Z to position 15.0 mm
G92 E0                  ;zero the extruded length
G1 E20 F200             ;extrude 20mm of feed stock
G92 E0                  ;zero the extruded length again
G1 F7200                ;set feedrate to 120 mm/s
; -- end of START GCODE --
;LAYER_COUNT:197
;LAYER:0
M107
G0 F3600 X66.096 Y45.664 Z0.2
;TYPE:SKIRT
G1 F1800 X66.579 Y45.04 E0.02625
G1 X66.985 Y44.602 E0.04611
G1 X67.102 Y44.485 E0.05161
G1 X67.688 Y43.955 E0.07789
G1 X68.324 Y43.488 E0.10414
G1 X69.004 Y43.087 E0.13039
G1 X69.722 Y42.757 E0.15667
G1 X70.469 Y42.502 E0.18293
G1 X71.238 Y42.323 E0.20919
G1 X72.022 Y42.223 E0.23548
G1 X72.617 Y42.2 E0.25528
G1 X142.383 Y42.2 E2.57571
G1 X143.172 Y42.24 E2.60198
G1 X143.952 Y42.359 E2.62823
G1 X144.717 Y42.557 E2.65451
G1 X145.457 Y42.831 E2.68075
G1 X146.166 Y43.179 E2.70702
G1 X146.837 Y43.597 E2.73332
G1 X147.461 Y44.08 E2.75956
G1 X147.898 Y44.485 E2.77938
G1 X148.015 Y44.602 E2.78488
G1 X148.545 Y45.188 E2.81116
G1 X149.012 Y45.824 E2.83741
G1 X149.413 Y46.504 E2.86366
G1 X149.743 Y47.222 E2.88994
G1 X149.998 Y47.969 E2.9162
G1 X150.177 Y48.738 E2.94246
G1 X150.277 Y49.522 E2.96875
G1 X150.3 Y50.122 E2.98872
G1 X150.251 Y119.68 E5.30222
G1 X150.21 Y120.469 E5.3285
G1 X150.09 Y121.25 E5.35478
G1 X149.885 Y122.036 E5.3818
G1 X149.515 Y123.201 E5.42246
G1 X149.238 Y123.941 E5.44874
G1 X149.056 Y124.331 E5.46305
G1 X130.415 Y161.578 E6.84838
G1 X130.027 Y162.265 E6.87462
G1 X129.738 Y162.689 E6.89169
G1 X129.342 Y163.231 E6.91401
G1 X128.845 Y163.844 E6.94026
G1 X128.44 Y164.261 E6.95959
G1 X127.938 Y164.742 E6.98272
G1 X127.341 Y165.259 E7.00898
G1 X126.927 Y165.56 E7.02601
G1 X126.371 Y165.938 E7.04837
G1 X125.697 Y166.349 E7.07463
G1 X125.202 Y166.594 E7.093
G1 X124.57 Y166.88 E7.11607
G1 X123.835 Y167.169 E7.14234
G1 X123.317 Y167.323 E7.16031
G1 X122.667 Y167.492 E7.18265
G1 X121.893 Y167.652 E7.20894
G1 X120.721 Y167.743 E7.24803
G1 X94.992 Y167.8 E8.10379
G1 X94.309 Y167.771 E8.12652
G1 X93.621 Y167.712 E8.14949
G1 X92.838 Y167.605 E8.17578
G1 X92.308 Y167.486 E8.19384
G1 X91.66 Y167.316 E8.21612
G1 X90.907 Y167.077 E8.2424
G1 X90.417 Y166.875 E8.26003
G1 X89.793 Y166.592 E8.28282
G1 X89.092 Y166.229 E8.30907
G1 X88.64 Y165.946 E8.32681
G1 X88.082 Y165.568 E8.34923
G1 X87.452 Y165.092 E8.37549
G1 X87.05 Y164.732 E8.39344
G1 X86.552 Y164.253 E8.41642
G1 X86.011 Y163.677 E8.4427
G1 X85.672 Y163.248 E8.46089
G1 X85.274 Y162.706 E8.48325
G1 X84.839 Y162.046 E8.50954
G1 X84.582 Y161.572 E8.52748
G1 X65.715 Y123.765 E9.93283
G1 X65.398 Y123.041 E9.95911
G1 X65.157 Y122.29 E9.98535
G1 X65.041 Y121.791 E10.00238
G1 X64.858 Y120.863 E10.03384
G1 X64.745 Y120.082 E10.06009
G1 X64.711 Y119.355 E10.0843
G1 X64.7 Y50.118 E12.38713
G1 X64.74 Y49.33 E12.41337
G1 X64.859 Y48.549 E12.43965
G1 X65.057 Y47.784 E12.46593
G1 X65.331 Y47.044 E12.49218
G1 X65.678 Y46.335 E12.51843
G1 X66.096 Y45.664 E12.54472
G0 F3600 X66.494 Y45.795
G1 F1800 X66.975 Y45.195 E12.5703
G1 X67.267 Y44.884 E12.58449
G1 X67.384 Y44.767 E12.58999
G1 X67.956 Y44.253 E12.61557
G1 X68.578 Y43.8 E12.64116
G1 X69.243 Y43.414 E12.66674
G1 X69.945 Y43.099 E12.69233
G1 X70.676 Y42.859 E12.71792
G1 X71.427 Y42.696 E12.74348
G1 X72.192 Y42.612 E12.76908
G1 X72.617 Y42.6 E12.78322
G1 X142.383 Y42.6 E15.10364
G1 X143.151 Y42.64 E15.12922
G1 X143.911 Y42.759 E15.15481
G1 X144.654 Y42.957 E15.18038
G1 X145.373 Y43.231 E15.20597
G1 X146.059 Y43.578 E15.23154
G1 X146.706 Y43.994 E15.25713
G1 X147.306 Y44.475 E15.2827
G1 X147.616 Y44.767 E15.29687
G1 X147.733 Y44.884 E15.30237
G1 X148.247 Y45.456 E15.32795
G1 X148.7 Y46.078 E15.35354
G1 X149.086 Y46.743 E15.37912
G1 X149.401 Y47.445 E15.40471
G1 X149.641 Y48.176 E15.4303
G1 X149.804 Y48.927 E15.45586
G1 X149.888 Y49.692 E15.48146
G1 X149.9 Y50.122 E15.49576
G1 X149.851 Y119.68 E17.80927
G1 X149.81 Y120.448 E17.83485
G1 X149.69 Y121.208 E17.86044
G1 X149.504 Y121.915 E17.88476
G1 X149.134 Y123.08 E17.92541
G1 X148.863 Y123.8 E17.951
G1 X148.699 Y124.152 E17.96392
G1 X130.058 Y161.399 E19.34924
G1 X129.678 Y162.068 E19.37483
G1 X129.415 Y162.453 E19.39034
G1 X129.019 Y162.995 E19.41267
G1 X128.534 Y163.591 E19.43822
G1 X128.164 Y163.972 E19.45589
G1 X127.662 Y164.453 E19.47901
G1 X127.079 Y164.956 E19.50462
G1 X126.702 Y165.23 E19.52012
G1 X126.146 Y165.608 E19.54248
G1 X125.489 Y166.006 E19.56803
G1 X125.037 Y166.23 E19.58481
G1 X124.405 Y166.516 E19.60788
G1 X123.689 Y166.796 E19.63345
G1 X123.216 Y166.936 E19.64986
G1 X122.566 Y167.105 E19.6722
G1 X121.813 Y167.259 E19.69776
G1 X120.72 Y167.343 E19.73422
G1 X94.991 Y167.4 E20.58997
G1 X94.343 Y167.373 E20.61155
G1 X93.655 Y167.314 E20.63451
G1 X92.893 Y167.208 E20.6601
G1 X92.409 Y167.099 E20.6766
G1 X91.761 Y166.929 E20.69888
G1 X91.028 Y166.695 E20.72448
G1 X90.583 Y166.51 E20.7405
G1 X89.959 Y166.227 E20.76329
G1 X89.276 Y165.874 E20.78887
G1 X88.865 Y165.615 E20.80502
G1 X88.307 Y165.237 E20.82744
G1 X87.693 Y164.773 E20.85304
G1 X87.327 Y164.443 E20.86943
G1 X86.829 Y163.964 E20.89241
G1 X86.303 Y163.403 E20.91799
G1 X85.994 Y163.011 E20.93459
G1 X85.596 Y162.469 E20.95695
G1 X85.174 Y161.826 E20.98253
G1 X84.94 Y161.393 E20.9989
G1 X66.073 Y123.586 E22.40425
G1 X65.765 Y122.881 E22.42984
G1 X65.533 Y122.148 E22.45541
G1 X65.434 Y121.714 E22.47022
G1 X65.251 Y120.786 E22.50168
G1 X65.141 Y120.024 E22.52728
G1 X65.111 Y119.355 E22.54956
G1 X65.1 Y50.118 E24.85239
G1 X65.14 Y49.35 E24.87797
G1 X65.259 Y48.59 E24.90355
G1 X65.457 Y47.847 E24.92913
G1 X65.73 Y47.128 E24.95471
G1 X66.077 Y46.442 E24.98028
G1 X66.494 Y45.795 E25.00588
G0 F3600 X66.891 Y45.929
G1 F1800 X67.55 Y45.167 E25.03939
G1 X67.667 Y45.05 E25.04489
G1 X68.224 Y44.55 E25.06979
G1 X68.83 Y44.113 E25.09464
G1 X69.48 Y43.742 E25.11953
G1 X70.166 Y43.443 E25.14442
G1 X70.88 Y43.219 E25.16931
G1 X71.613 Y43.072 E25.19417
G1 X72.617 Y43 E25.22765
G1 X142.383 Y43 E27.54808
G1 X143.13 Y43.04 E27.57296
G1 X143.868 Y43.159 E27.59782
G1 X144.59 Y43.357 E27.62272
G1 X145.286 Y43.63 E27.64759
G1 X145.949 Y43.977 E27.67248
G1 X146.572 Y44.392 E27.69737
G1 X147.333 Y45.05 E27.73083
G1 X147.45 Y45.167 E27.73634
G1 X147.95 Y45.724 E27.76123
G1 X148.387 Y46.33 E27.78608
G1 X148.758 Y46.98 E27.81098
G1 X149.057 Y47.666 E27.83587
G1 X149.281 Y48.38 E27.86075
G1 X149.428 Y49.113 E27.88562
G1 X149.5 Y50.122 E27.91926
G1 X149.451 Y119.68 E30.23277
G1 X149.411 Y120.427 E30.25765
G1 X149.291 Y121.165 E30.28252
G1 X149.123 Y121.794 E30.30418
G1 X148.753 Y122.959 E30.34483
G1 X148.341 Y123.973 E30.38124
G1 X129.7 Y161.22 E31.76656
G1 X129.33 Y161.87 E31.79144
G1 X129.092 Y162.217 E31.80543
G1 X128.696 Y162.759 E31.82776
G1 X128.223 Y163.338 E31.85262
G1 X127.887 Y163.683 E31.86864
G1 X127.385 Y164.164 E31.89177
G1 X126.818 Y164.652 E31.91665
G1 X126.478 Y164.899 E31.93063
G1 X125.922 Y165.277 E31.95299
G1 X125.281 Y165.664 E31.97789
G1 X124.872 Y165.865 E31.99305
G1 X124.24 Y166.151 E32.01612
G1 X123.543 Y166.423 E32.04101
G1 X123.115 Y166.549 E32.05585
G1 X122.465 Y166.718 E32.07818
G1 X121.732 Y166.867 E32.10306
G1 X120.72 Y166.943 E32.13682
G1 X94.991 Y167 E32.99257
G1 X94.377 Y166.974 E33.01301
G1 X93.689 Y166.915 E33.03597
G1 X92.948 Y166.812 E33.06086
G1 X92.511 Y166.712 E33.07577
G1 X91.863 Y166.542 E33.09805
G1 X91.15 Y166.314 E33.12295
G1 X90.748 Y166.146 E33.13744
G1 X90.124 Y165.863 E33.16023
G1 X89.46 Y165.518 E33.18512
G1 X89.089 Y165.283 E33.19972
G1 X88.531 Y164.905 E33.22214
G1 X87.935 Y164.453 E33.24702
G1 X87.604 Y164.155 E33.26183
G1 X87.106 Y163.676 E33.28481
G1 X86.596 Y163.129 E33.30969
G1 X86.317 Y162.774 E33.3247
G1 X85.919 Y162.232 E33.34707
G1 X85.509 Y161.606 E33.37196
G1 X85.298 Y161.215 E33.38674
G1 X66.431 Y123.408 E34.79208
G1 X66.133 Y122.721 E34.81699
G1 X65.91 Y122.007 E34.84187
G1 X65.826 Y121.636 E34.85452
G1 X65.643 Y120.708 E34.88598
G1 X65.538 Y119.968 E34.91084
G1 X65.511 Y119.355 E34.93125
G1 X65.5 Y50.118 E37.23408
G1 X65.54 Y49.371 E37.25896
G1 X65.659 Y48.633 E37.28382
G1 X65.857 Y47.911 E37.30872
G1 X66.13 Y47.215 E37.33359
G1 X66.476 Y46.552 E37.35846
G1 X66.891 Y45.929 E37.38336
G0 F3600 X67.288 Y46.068
G1 F1800 X67.833 Y45.45 E37.41077
G1 X67.95 Y45.333 E37.41627
G1 X68.491 Y44.849 E37.44041
G1 X69.082 Y44.426 E37.46459
G1 X69.716 Y44.072 E37.48874
G1 X70.385 Y43.789 E37.5129
G1 X71.081 Y43.581 E37.53706
G1 X71.796 Y43.451 E37.56123
G1 X72.617 Y43.4 E37.58859
G1 X142.383 Y43.4 E39.90902
G1 X143.108 Y43.44 E39.93317
G1 X143.825 Y43.559 E39.95734
G1 X144.524 Y43.757 E39.9815
G1 X145.197 Y44.03 E40.00566
G1 X145.836 Y44.375 E40.02981
G1 X146.433 Y44.789 E40.05398
G1 X147.05 Y45.333 E40.08133
G1 X147.167 Y45.45 E40.08684
G1 X147.651 Y45.991 E40.11098
G1 X148.074 Y46.582 E40.13515
G1 X148.428 Y47.216 E40.15931
G1 X148.711 Y47.885 E40.18347
G1 X148.919 Y48.581 E40.20763
G1 X149.049 Y49.296 E40.2318
G1 X149.1 Y50.122 E40.25932
G1 X149.051 Y119.68 E42.57283
G1 X149.011 Y120.405 E42.59698
G1 X148.891 Y121.121 E42.62113
G1 X148.741 Y121.673 E42.64015
G1 X148.371 Y122.838 E42.68081
G1 X147.983 Y123.794 E42.71512
G1 X129.342 Y161.041 E44.10045
G1 X128.982 Y161.672 E44.12461
G1 X128.769 Y161.981 E44.1371
G1 X128.373 Y162.523 E44.15942
G1 X127.913 Y163.085 E44.18358
G1 X127.61 Y163.395 E44.19799
G1 X127.108 Y163.876 E44.22112
G1 X126.557 Y164.348 E44.24525
G1 X126.253 Y164.568 E44.25773
G1 X125.697 Y164.946 E44.28009
G1 X125.074 Y165.321 E44.30428
G1 X124.707 Y165.501 E44.31787
G1 X124.075 Y165.787 E44.34095
G1 X123.398 Y166.05 E44.3651
G1 X123.015 Y166.162 E44.37837
G1 X122.365 Y166.331 E44.40071
G1 X121.653 Y166.474 E44.42487
G1 X120.719 Y166.543 E44.45602
G1 X94.99 Y166.6 E45.31177
G1 X94.411 Y166.576 E45.33104
G1 X93.723 Y166.517 E45.35401
G1 X93.004 Y166.415 E45.37816
G1 X92.612 Y166.325 E45.39154
G1 X91.964 Y166.155 E45.41382
G1 X91.273 Y165.932 E45.43797
G1 X90.913 Y165.782 E45.45094
G1 X90.289 Y165.499 E45.47373
G1 X89.645 Y165.163 E45.49789
G1 X89.313 Y164.952 E45.51098
G1 X88.755 Y164.574 E45.53339
G1 X88.177 Y164.134 E45.55755
G1 X87.882 Y163.867 E45.57079
G1 X87.384 Y163.388 E45.59377
G1 X86.889 Y162.856 E45.61794
G1 X86.639 Y162.537 E45.63142
G1 X86.241 Y161.995 E45.65378
G1 X85.844 Y161.387 E45.67793
G1 X85.656 Y161.036 E45.69118
G1 X66.789 Y123.229 E47.09652
G1 X66.5 Y122.562 E47.1207
G1 X66.219 Y121.559 E47.15535
G1 X66.036 Y120.631 E47.18681
G1 X65.935 Y119.912 E47.21096
G1 X65.911 Y119.355 E47.2295
G1 X65.9 Y50.118 E49.53233
G1 X65.94 Y49.393 E49.55648
G1 X66.059 Y48.676 E49.58065
G1 X66.256 Y47.977 E49.60481
G1 X66.529 Y47.304 E49.62896
G1 X66.875 Y46.665 E49.65313
G1 X67.288 Y46.068 E49.67728
G0 F3600 X67.685 Y46.211
G1 F1800 X68.116 Y45.733 E49.69868
G1 X68.233 Y45.616 E49.70419
G1 X68.758 Y45.147 E49.7276
G1 X69.333 Y44.741 E49.75101
G1 X69.951 Y44.403 E49.77444
G1 X70.602 Y44.136 E49.79785
G1 X71.28 Y43.946 E49.82126
G1 X71.975 Y43.833 E49.84468
G1 X72.617 Y43.8 E49.86606
G1 X142.383 Y43.8 E52.18649
G1 X143.086 Y43.84 E52.20991
G1 X143.78 Y43.959 E52.23333
G1 X144.455 Y44.157 E52.25673
G1 X145.104 Y44.429 E52.28013
G1 X145.718 Y44.774 E52.30356
G1 X146.289 Y45.185 E52.32696
G1 X146.767 Y45.616 E52.34836
G1 X146.884 Y45.733 E52.35387
G1 X147.353 Y46.258 E52.37728
G1 X147.759 Y46.833 E52.40069
G1 X148.097 Y47.451 E52.42412
G1 X148.364 Y48.102 E52.44752
G1 X148.554 Y48.78 E52.47094
G1 X148.667 Y49.475 E52.49436
G1 X148.7 Y50.121 E52.51588
G1 X148.651 Y119.679 E54.82938
G1 X148.611 Y120.382 E54.8528
G1 X148.491 Y121.076 E54.87623
G1 X148.36 Y121.552 E54.89265
G1 X147.99 Y122.717 E54.93331
G1 X147.625 Y123.615 E54.96555
G1 X128.984 Y160.862 E56.35087
G1 X128.446 Y161.745 E56.38526
G1 X128.05 Y162.287 E56.40759
G1 X127.603 Y162.831 E56.43101
G1 X127.333 Y163.106 E56.44382
G1 X126.831 Y163.587 E56.46695
G1 X126.028 Y164.237 E56.50131
G1 X125.472 Y164.615 E56.52367
G1 X124.868 Y164.977 E56.54709
G1 X124.542 Y165.137 E56.55917
G1 X123.91 Y165.423 E56.58224
G1 X123.253 Y165.676 E56.60566
G1 X122.914 Y165.774 E56.6174
G1 X122.264 Y165.943 E56.63973
G1 X121.574 Y166.082 E56.66314
G1 X120.718 Y166.143 E56.69169
G1 X94.989 Y166.2 E57.54744
G1 X94.445 Y166.177 E57.56555
G1 X93.757 Y166.118 E57.58852
G1 X93.06 Y166.018 E57.61194
G1 X92.714 Y165.938 E57.62375
G1 X92.066 Y165.768 E57.64603
G1 X91.078 Y165.417 E57.6809
G1 X90.454 Y165.134 E57.70369
G1 X89.538 Y164.621 E57.73861
G1 X88.98 Y164.243 E57.76103
G1 X88.42 Y163.816 E57.78445
G1 X88.159 Y163.578 E57.7962
G1 X87.661 Y163.099 E57.81918
G1 X87.182 Y162.583 E57.8426
G1 X86.962 Y162.301 E57.85449
G1 X86.564 Y161.759 E57.87686
G1 X86.18 Y161.168 E57.9003
G1 X86.013 Y160.857 E57.91204
G1 X67.146 Y123.05 E59.31739
G1 X66.868 Y122.404 E59.34078
G1 X66.611 Y121.482 E59.37261
G1 X66.428 Y120.554 E59.40407
G1 X66.331 Y119.856 E59.42751
G1 X66.311 Y119.355 E59.44419
G1 X66.3 Y50.118 E61.74702
G1 X66.34 Y49.415 E61.77044
G1 X66.459 Y48.721 E61.79386
G1 X66.656 Y48.045 E61.81728
G1 X66.929 Y47.396 E61.8407
G1 X67.273 Y46.782 E61.8641
G1 X67.685 Y46.211 E61.88752
G0 F3600 X68.399 Y46.016
G1 F1800 X68.516 Y45.899 E61.89303
G1 X69.025 Y45.446 E61.91569
G1 X69.583 Y45.057 E61.93831
G1 X70.183 Y44.735 E61.96096
G1 X70.817 Y44.486 E61.98362
G1 X71.476 Y44.313 E62.00628
G1 X72.15 Y44.219 E62.02891
G1 X72.617 Y44.2 E62.04446
G1 X142.383 Y44.2 E64.36488
G1 X143.063 Y44.24 E64.38754
G1 X143.733 Y44.359 E64.41017
G1 X144.385 Y44.556 E64.43283
G1 X145.009 Y44.828 E64.45547
G1 X145.597 Y45.172 E64.47813
G1 X146.141 Y45.582 E64.50078
G1 X146.484 Y45.899 E64.51632
G1 X146.601 Y46.016 E64.52182
G1 X147.054 Y46.525 E64.54448
G1 X147.443 Y47.083 E64.56711
G1 X147.765 Y47.683 E64.58976
G1 X148.014 Y48.317 E64.61241
G1 X148.187 Y48.976 E64.63507
G1 X148.281 Y49.65 E64.65771
G1 X148.3 Y50.121 E64.67338
G1 X148.251 Y119.679 E66.98689
G1 X148.211 Y120.359 E67.00955
G1 X148.091 Y121.029 E67.03219
G1 X147.979 Y121.431 E67.04607
G1 X147.609 Y122.596 E67.08672
G1 X147.268 Y123.436 E67.11688
G1 X128.627 Y160.683 E68.5022
G1 X128.123 Y161.509 E68.53439
G1 X127.727 Y162.051 E68.55671
G1 X127.057 Y162.817 E68.59056
G1 X126.555 Y163.298 E68.61368
G1 X125.803 Y163.906 E68.64585
G1 X125.247 Y164.284 E68.66821
G1 X124.377 Y164.772 E68.70139
G1 X123.745 Y165.058 E68.72446
G1 X122.813 Y165.387 E68.75733
G1 X122.163 Y165.556 E68.77967
G1 X121.496 Y165.689 E68.80229
G1 X120.717 Y165.743 E68.82826
G1 X94.988 Y165.8 E69.68402
G1 X94.479 Y165.779 E69.70096
G1 X93.791 Y165.72 E69.72393
G1 X92.815 Y165.551 E69.75687
G1 X92.167 Y165.381 E69.77915
G1 X91.243 Y165.053 E69.81176
G1 X90.619 Y164.77 E69.83455
G1 X89.762 Y164.29 E69.86722
G1 X89.204 Y163.912 E69.88964
G1 X88.436 Y163.29 E69.92251
G1 X87.938 Y162.811 E69.94549
G1 X87.284 Y162.064 E69.97851
G1 X86.886 Y161.522 E70.00088
G1 X86.371 Y160.679 E70.03374
G1 X67.504 Y122.872 E71.43908
G1 X67.237 Y122.246 E71.46172
G1 X67.004 Y121.404 E71.49078
G1 X66.821 Y120.476 E71.52224
G1 X66.728 Y119.802 E71.54487
G1 X66.711 Y119.355 E71.55974
G1 X66.7 Y50.118 E73.86258
G1 X66.74 Y49.438 E73.88523
G1 X66.859 Y48.768 E73.90786
G1 X67.056 Y48.116 E73.93052
G1 X67.328 Y47.492 E73.95316
G1 X67.671 Y46.904 E73.9758
G1 X68.081 Y46.36 E73.99846
G1 X68.399 Y46.016 E74.01404
G0 F3600 X68.799 Y46.182
G1 F1800 X69.291 Y45.746 E74.0359
G1 X69.832 Y45.374 E74.05774
G1 X70.414 Y45.07 E74.07958
G1 X71.029 Y44.839 E74.10143
G1 X71.668 Y44.684 E74.1233
G1 X72.617 Y44.6 E74.15499
G1 X142.383 Y44.6 E76.47541
G1 X143.039 Y44.64 E76.49727
G1 X143.685 Y44.759 E76.51912
G1 X144.312 Y44.956 E76.54098
G1 X144.91 Y45.228 E76.56283
G1 X145.471 Y45.57 E76.58468
G1 X146.201 Y46.182 E76.61637
G1 X146.318 Y46.299 E76.62187
G1 X146.754 Y46.791 E76.64373
G1 X147.126 Y47.332 E76.66557
G1 X147.43 Y47.914 E76.68741
G1 X147.661 Y48.529 E76.70926
G1 X147.816 Y49.168 E76.73113
G1 X147.9 Y50.121 E76.76295
G1 X147.851 Y119.679 E79.07646
