;FLAVOR:Repetier
;TIME:5345
;Generated with Cura_SteamEngine 2.6.2
M104 S205
M109 S205
; -- START GCODE --
G21                     ;set units to millimetres
G90                     ;set to absolute positioning
M106 S0                 ;set fan speed to zero (turned off)
G28 X0 Y0               ;move to the X/Y origin (Home)
G28 Z0                  ;move to the Z origin (Home)
G1 Z15.0 F1200          ;move Z to position 15.0 mm
G92 E0                  ;zero the extruded length
G1 E20 F200             ;extrude 20mm of feed stock
G92 E0                  ;zero the extruded length again
G1 F7200                ;set feedrate to 120 mm/s
; -- end of START GCODE --
;LAYER_COUNT:114
;LAYER:0
M107
G0 F3600 X67.671 Y46.905 Z0.2
;TYPE:SKIRT
G1 F1800 X68.08 Y46.361 E0.02264
G1 X68.399 Y46.016 E0.03827
G1 X68.516 Y45.899 E0.04377
G1 X69.025 Y45.446 E0.06643
G1 X69.583 Y45.057 E0.08906
G1 X70.183 Y44.735 E0.1117
G1 X70.817 Y44.486 E0.13436
G1 X71.476 Y44.313 E0.15702
G1 X72.15 Y44.219 E0.17965
G1 X72.617 Y44.2 E0.1952
G1 X142.383 Y44.2 E2.51563
G1 X143.063 Y44.24 E2.53828
G1 X143.733 Y44.359 E2.56091
G1 X144.385 Y44.556 E2.58357
G1 X145.009 Y44.828 E2.60621
G1 X145.597 Y45.172 E2.62887
G1 X146.141 Y45.582 E2.65152
G1 X146.484 Y45.899 E2.66706
G1 X146.601 Y46.016 E2.67256
G1 X147.054 Y46.525 E2.69522
G1 X147.443 Y47.083 E2.71785
G1 X147.765 Y47.683 E2.7405
G1 X148.014 Y48.317 E2.76315
G1 X148.187 Y48.976 E2.78581
G1 X148.281 Y49.65 E2.80845
G1 X148.3 Y50.125 E2.82426
G1 X148.243 Y89.992 E4.15024
G1 X148.202 Y90.672 E4.1729
G1 X148.051 Y91.463 E4.19968
G1 X147.874 Y92.134 E4.22276
G1 X147.727 Y92.609 E4.2393
G1 X123.147 Y161.292 E6.66559
G1 X122.88 Y161.919 E6.68826
G1 X122.542 Y162.51 E6.7109
G1 X122.137 Y163.057 E6.73354
G1 X121.581 Y163.636 E6.76024
G1 X121.048 Y164.119 E6.78416
G1 X120.517 Y164.546 E6.80682
G1 X119.94 Y164.907 E6.82946
G1 X119.325 Y165.199 E6.8521
G1 X118.801 Y165.382 E6.87057
G1 X118.214 Y165.556 E6.89093
G1 X117.551 Y165.711 E6.91357
G1 X116.566 Y165.795 E6.94645
G1 X98.427 Y165.795 E7.54976
G1 X97.747 Y165.755 E7.57242
G1 X96.992 Y165.615 E7.59796
G1 X96.526 Y165.496 E7.61395
G1 X95.877 Y165.289 E7.63661
G1 X95.257 Y165.007 E7.65926
G1 X94.607 Y164.608 E7.68463
G1 X94.102 Y164.25 E7.70522
G1 X93.57 Y163.824 E7.72789
G1 X93.092 Y163.339 E7.75054
G1 X92.617 Y162.716 E7.77659
G1 X92.348 Y162.309 E7.79282
G1 X92.007 Y161.72 E7.81546
G1 X91.725 Y161.061 E7.8393
G1 X67.171 Y92.276 E10.26849
G1 X66.921 Y91.331 E10.301
G1 X66.804 Y90.666 E10.32346
G1 X66.716 Y89.663 E10.35695
G1 X66.7 Y50.119 E11.67219
G1 X66.74 Y49.44 E11.69481
G1 X66.859 Y48.769 E11.71747
G1 X67.056 Y48.117 E11.74013
G1 X67.327 Y47.493 E11.76275
G1 X67.671 Y46.905 E11.78541
G0 F3600 X68.069 Y47.031
G1 F1800 X68.682 Y46.299 E11.81717
G1 X68.799 Y46.182 E11.82267
G1 X69.291 Y45.746 E11.84454
G1 X69.832 Y45.374 E11.86637
G1 X70.414 Y45.07 E11.88821
G1 X71.029 Y44.839 E11.91006
G1 X71.668 Y44.684 E11.93193
G1 X72.617 Y44.6 E11.96362
G1 X142.383 Y44.6 E14.28405
G1 X143.039 Y44.64 E14.30591
G1 X143.685 Y44.759 E14.32775
G1 X144.312 Y44.956 E14.34961
G1 X144.91 Y45.228 E14.37146
G1 X145.471 Y45.57 E14.39332
G1 X146.201 Y46.182 E14.425
G1 X146.318 Y46.299 E14.4305
G1 X146.754 Y46.791 E14.45237
G1 X147.126 Y47.332 E14.4742
G1 X147.43 Y47.914 E14.49604
G1 X147.661 Y48.529 E14.51789
G1 X147.816 Y49.168 E14.53976
G1 X147.9 Y50.125 E14.57172
G1 X147.843 Y89.992 E15.8977
G1 X147.802 Y90.647 E15.91953
G1 X147.664 Y91.361 E15.94371
G1 X147.487 Y92.032 E15.9668
G1 X147.35 Y92.475 E15.98222
G1 X122.77 Y161.158 E18.40851
G1 X122.512 Y161.761 E18.43032
G1 X122.182 Y162.33 E18.4522
G1 X121.785 Y162.853 E18.47404
G1 X121.312 Y163.339 E18.49659
G1 X120.779 Y163.822 E18.52052
G1 X120.266 Y164.233 E18.54238
G1 X119.707 Y164.579 E18.56425
G1 X119.111 Y164.854 E18.58608
G1 X118.688 Y164.998 E18.60094
G1 X118.101 Y165.172 E18.6213
G1 X117.461 Y165.32 E18.64315
G1 X116.566 Y165.395 E18.67302
G1 X98.427 Y165.395 E19.27633
G1 X97.771 Y165.355 E19.29819
G1 X97.091 Y165.227 E19.3212
G1 X96.625 Y165.108 E19.3372
G1 X95.999 Y164.907 E19.35907
G1 X95.403 Y164.632 E19.3809
G1 X94.838 Y164.281 E19.40302
G1 X94.333 Y163.923 E19.42361
G1 X93.821 Y163.511 E19.44547
G1 X93.363 Y163.041 E19.46729
G1 X92.951 Y162.495 E19.49004
G1 X92.682 Y162.088 E19.50627
G1 X92.354 Y161.519 E19.52811
G1 X92.101 Y160.926 E19.54956
G1 X67.547 Y92.141 E21.97875
G1 X67.315 Y91.262 E22.00899
G1 X67.198 Y90.597 E22.03144
G1 X67.116 Y89.663 E22.06263
G1 X67.1 Y50.119 E23.37787
G1 X67.14 Y49.463 E23.39973
G1 X67.259 Y48.817 E23.42157
G1 X67.455 Y48.19 E23.44342
G1 X67.727 Y47.592 E23.46527
G1 X68.069 Y47.031 E23.48713
G0 F3600 X68.466 Y47.163
G1 F1800 X68.964 Y46.581 E23.5126
G1 X69.081 Y46.464 E23.51811
G1 X69.556 Y46.047 E23.53913
G1 X70.079 Y45.692 E23.56015
G1 X70.643 Y45.406 E23.58119
G1 X71.238 Y45.194 E23.60219
G1 X71.856 Y45.058 E23.62324
G1 X72.617 Y45 E23.64863
G1 X142.383 Y45 E25.96905
G1 X143.014 Y45.04 E25.99008
G1 X143.635 Y45.159 E26.01111
G1 X144.235 Y45.356 E26.03212
G1 X144.807 Y45.627 E26.05317
G1 X145.339 Y45.967 E26.07417
G1 X145.919 Y46.464 E26.09957
G1 X146.036 Y46.581 E26.10507
G1 X146.453 Y47.056 E26.1261
G1 X146.808 Y47.579 E26.14712
G1 X147.094 Y48.143 E26.16815
G1 X147.306 Y48.738 E26.18916
G1 X147.442 Y49.356 E26.21021
G1 X147.5 Y50.124 E26.23583
G1 X147.443 Y89.991 E27.56181
G1 X147.402 Y90.622 E27.58284
G1 X147.278 Y91.259 E27.60442
G1 X147.101 Y91.93 E27.62751
G1 X146.974 Y92.34 E27.64178
G1 X122.394 Y161.023 E30.06807
G1 X122.143 Y161.603 E30.08909
G1 X121.822 Y162.148 E30.11013
G1 X121.434 Y162.647 E30.13115
G1 X121.043 Y163.043 E30.14966
G1 X120.51 Y163.526 E30.17358
G1 X120.016 Y163.92 E30.1946
G1 X119.476 Y164.249 E30.21563
G1 X118.899 Y164.506 E30.23664
G1 X118.574 Y164.615 E30.24804
G1 X117.987 Y164.789 E30.2684
G1 X117.371 Y164.93 E30.28942
G1 X116.566 Y164.995 E30.31628
G1 X98.427 Y164.995 E30.91959
G1 X97.796 Y164.955 E30.94062
G1 X97.19 Y164.84 E30.96113
G1 X96.724 Y164.721 E30.97713
G1 X96.123 Y164.526 E30.99815
G1 X95.551 Y164.257 E31.01917
G1 X95.069 Y163.955 E31.03809
G1 X94.564 Y163.597 E31.05868
G1 X94.073 Y163.2 E31.07968
G1 X93.635 Y162.743 E31.10073
G1 X93.285 Y162.275 E31.12017
G1 X93.016 Y161.868 E31.13639
G1 X92.701 Y161.32 E31.15742
G1 X92.478 Y160.792 E31.17648
G1 X67.924 Y92.007 E33.60567
G1 X67.709 Y91.192 E33.63371
G1 X67.592 Y90.527 E33.65616
G1 X67.516 Y89.663 E33.68501
G1 X67.5 Y50.119 E35.00025
G1 X67.54 Y49.488 E35.02128
G1 X67.659 Y48.867 E35.04231
G1 X67.855 Y48.266 E35.06334
G1 X68.126 Y47.695 E35.08436
G1 X68.466 Y47.163 E35.10536
G0 F3600 X69.247 Y46.864
G1 F1800 X69.364 Y46.747 E35.11086
G1 X69.82 Y46.348 E35.13101
G1 X70.325 Y46.012 E35.15119
G1 X70.869 Y45.745 E35.17134
G1 X71.444 Y45.552 E35.19152
G1 X72.039 Y45.436 E35.21168
G1 X72.617 Y45.4 E35.23094
G1 X142.383 Y45.4 E37.55137
G1 X142.988 Y45.44 E37.57153
G1 X143.582 Y45.559 E37.59168
G1 X144.156 Y45.755 E37.61186
G1 X144.699 Y46.026 E37.63204
G1 X145.202 Y46.365 E37.65222
G1 X145.636 Y46.747 E37.67145
G1 X145.753 Y46.864 E37.67695
G1 X146.152 Y47.32 E37.6971
G1 X146.488 Y47.825 E37.71728
G1 X146.755 Y48.369 E37.73743
G1 X146.948 Y48.944 E37.7576
G1 X147.064 Y49.539 E37.77777
G1 X147.1 Y50.124 E37.79726
G1 X147.043 Y89.991 E39.12324
G1 X147.002 Y90.596 E39.14341
G1 X146.891 Y91.157 E39.16243
G1 X146.714 Y91.828 E39.18551
G1 X146.597 Y92.205 E39.19864
G1 X122.017 Y160.888 E41.62493
G1 X121.776 Y161.444 E41.64509
G1 X121.463 Y161.964 E41.66527
G1 X121.085 Y162.438 E41.68544
G1 X120.775 Y162.747 E41.7
G1 X120.242 Y163.23 E41.72392
G1 X119.767 Y163.606 E41.74407
G1 X119.246 Y163.917 E41.76425
G1 X118.46 Y164.231 E41.7924
G1 X117.873 Y164.405 E41.81276
G1 X117.282 Y164.539 E41.83292
G1 X116.566 Y164.595 E41.85681
G1 X98.427 Y164.595 E42.46011
G1 X97.822 Y164.555 E42.48028
G1 X97.289 Y164.452 E42.49833
G1 X96.823 Y164.333 E42.51433
G1 X96.247 Y164.145 E42.53448
G1 X95.7 Y163.882 E42.55467
G1 X95.301 Y163.629 E42.57038
G1 X94.796 Y163.271 E42.59097
G1 X94.325 Y162.888 E42.61116
G1 X93.909 Y162.447 E42.63133
G1 X93.618 Y162.054 E42.64759
G1 X93.349 Y161.647 E42.66382
G1 X93.049 Y161.121 E42.68396
G1 X92.855 Y160.657 E42.70069
G1 X68.301 Y91.872 E45.12988
G1 X68.103 Y91.123 E45.15565
G1 X67.986 Y90.458 E45.1781
G1 X67.916 Y89.663 E45.20465
G1 X67.9 Y50.119 E46.51989
G1 X67.94 Y49.514 E46.54005
G1 X68.059 Y48.919 E46.56023
G1 X68.255 Y48.346 E46.58038
G1 X68.525 Y47.803 E46.60055
G1 X68.863 Y47.3 E46.6207
G1 X69.247 Y46.864 E46.64003
G0 F3600 X69.53 Y47.147
G1 F1800 X69.647 Y47.03 E46.64553
G1 X70.084 Y46.65 E46.66479
G1 X70.569 Y46.333 E46.68406
G1 X71.093 Y46.086 E46.70333
G1 X71.646 Y45.914 E46.72259
G1 X72.218 Y45.819 E46.74188
G1 X72.617 Y45.8 E46.75516
G1 X142.383 Y45.8 E49.07559
G1 X142.961 Y45.84 E49.09486
G1 X143.528 Y45.959 E49.11413
G1 X144.073 Y46.155 E49.13339
G1 X144.586 Y46.424 E49.15266
G1 X145.057 Y46.761 E49.17192
G1 X145.353 Y47.03 E49.18522
G1 X145.47 Y47.147 E49.19073
G1 X145.85 Y47.584 E49.20999
G1 X146.167 Y48.069 E49.22926
G1 X146.414 Y48.593 E49.24853
G1 X146.586 Y49.146 E49.26779
G1 X146.681 Y49.718 E49.28707
G1 X146.7 Y50.123 E49.30056
G1 X146.643 Y89.99 E50.62654
G1 X146.602 Y90.568 E50.64582
G1 X146.504 Y91.055 E50.66234
G1 X146.327 Y91.726 E50.68542
G1 X146.22 Y92.07 E50.6974
G1 X121.64 Y160.753 E53.12369
G1 X121.408 Y161.284 E53.14296
G1 X121.105 Y161.778 E53.16224
G1 X120.737 Y162.225 E53.18149
G1 X120.506 Y162.45 E53.19222
G1 X119.973 Y162.933 E53.21614
G1 X119.518 Y163.292 E53.23542
G1 X119.018 Y163.584 E53.25468
G1 X118.347 Y163.848 E53.27866
G1 X117.76 Y164.022 E53.29902
G1 X117.194 Y164.148 E53.31831
G1 X116.566 Y164.195 E53.33926
G1 X98.427 Y164.195 E53.94256
G1 X97.849 Y164.155 E53.96183
G1 X97.388 Y164.064 E53.97746
G1 X96.922 Y163.945 E53.99346
G1 X96.372 Y163.764 E54.01272
G1 X95.852 Y163.508 E54.03199
G1 X95.532 Y163.302 E54.04465
G1 X95.027 Y162.944 E54.06524
G1 X94.579 Y162.578 E54.08448
G1 X94.185 Y162.153 E54.10376
G1 X93.952 Y161.834 E54.11689
G1 X93.683 Y161.427 E54.13312
G1 X93.398 Y160.923 E54.15238
G1 X93.231 Y160.523 E54.1668
G1 X68.677 Y91.738 E56.59599
G1 X68.497 Y91.054 E56.61951
G1 X68.38 Y90.389 E56.64197
G1 X68.316 Y89.663 E56.66621
G1 X68.3 Y50.119 E57.98145
G1 X68.34 Y49.541 E58.00072
G1 X68.459 Y48.974 E58.01999
G1 X68.654 Y48.429 E58.03924
G1 X68.923 Y47.915 E58.05854
G1 X69.26 Y47.444 E58.0778
G1 X69.53 Y47.147 E58.09115
G0 F3600 X69.93 Y47.313
G1 F1800 X70.347 Y46.953 E58.10947
G1 X70.811 Y46.656 E58.1278
G1 X71.314 Y46.43 E58.14614
G1 X71.844 Y46.279 E58.16447
G1 X72.617 Y46.2 E58.19031
G1 X142.383 Y46.2 E60.51074
G1 X142.933 Y46.24 E60.52908
G1 X143.471 Y46.359 E60.5474
G1 X143.986 Y46.555 E60.56573
G1 X144.467 Y46.823 E60.58405
G1 X145.07 Y47.313 E60.60989
G1 X145.187 Y47.43 E60.61539
G1 X145.547 Y47.847 E60.63371
G1 X145.844 Y48.311 E60.65204
G1 X146.07 Y48.814 E60.67038
G1 X146.221 Y49.344 E60.68871
G1 X146.3 Y50.122 E60.71472
G1 X146.243 Y89.989 E62.0407
G1 X146.202 Y90.539 E62.05904
G1 X146.117 Y90.953 E62.0731
G1 X145.94 Y91.624 E62.09618
G1 X145.844 Y91.935 E62.10701
G1 X121.264 Y160.618 E64.5333
G1 X121.041 Y161.122 E64.55163
G1 X120.748 Y161.589 E64.56996
G1 X120.238 Y162.154 E64.59528
G1 X119.705 Y162.637 E64.6192
G1 X119.271 Y162.976 E64.63752
G1 X118.792 Y163.249 E64.65586
G1 X118.233 Y163.464 E64.67578
G1 X117.646 Y163.638 E64.69614
G1 X117.108 Y163.756 E64.71446
G1 X116.566 Y163.795 E64.73253
G1 X98.427 Y163.795 E65.33584
G1 X97.877 Y163.755 E65.35418
G1 X97.487 Y163.677 E65.36741
G1 X97.021 Y163.558 E65.3834
G1 X96.498 Y163.383 E65.40175
G1 X96.006 Y163.135 E65.42007
G1 X95.763 Y162.976 E65.42973
G1 X95.258 Y162.618 E65.45032
G1 X94.833 Y162.268 E65.46863
G1 X94.463 Y161.859 E65.48698
G1 X94.286 Y161.613 E65.49706
G1 X94.017 Y161.206 E65.51328
G1 X93.747 Y160.726 E65.5316
G1 X93.608 Y160.389 E65.54372
G1 X69.054 Y91.604 E67.97291
G1 X68.89 Y90.984 E67.99425
G1 X68.773 Y90.319 E68.0167
G1 X68.716 Y89.663 E68.0386
G1 X68.7 Y50.119 E69.35384
G1 X68.74 Y49.569 E69.37218
G1 X68.859 Y49.031 E69.39051
G1 X69.054 Y48.516 E69.40883
G1 X69.322 Y48.034 E69.42717
G1 X69.813 Y47.43 E69.45306
G1 X69.93 Y47.313 E69.45856
G0 F3600 X70.213 Y47.596
G1 F1800 X70.609 Y47.257 E69.4759
G1 X71.051 Y46.982 E69.49321
G1 X71.531 Y46.778 E69.51056
G1 X72.036 Y46.65 E69.52789
G1 X72.617 Y46.6 E69.54728
G1 X142.383 Y46.6 E71.86771
G1 X142.903 Y46.64 E71.88506
G1 X143.41 Y46.759 E71.90238
G1 X143.893 Y46.954 E71.9197
G1 X144.341 Y47.22 E71.93703
G1 X144.787 Y47.596 E71.95643
G1 X144.904 Y47.713 E71.96194
G1 X145.243 Y48.109 E71.97928
G1 X145.518 Y48.551 E71.99659
G1 X145.722 Y49.031 E72.01394
G1 X145.85 Y49.536 E72.03126
G1 X145.9 Y50.122 E72.05083
G1 X145.843 Y89.989 E73.37681
G1 X145.802 Y90.508 E73.39412
G1 X145.731 Y90.851 E73.40577
G1 X145.554 Y91.522 E73.42885
G1 X145.467 Y91.801 E73.43858
G1 X120.887 Y160.484 E75.86486
G1 X120.674 Y160.959 E75.88218
G1 X120.392 Y161.397 E75.8995
G1 X119.969 Y161.857 E75.92029
G1 X119.436 Y162.34 E75.94421
G1 X119.024 Y162.66 E75.96156
G1 X118.568 Y162.912 E75.97889
G1 X118.119 Y163.081 E75.99485
G1 X117.532 Y163.255 E76.01521
G1 X117.023 Y163.364 E76.03252
G1 X116.566 Y163.395 E76.04776
G1 X98.427 Y163.395 E76.65107
G1 X97.907 Y163.355 E76.66841
G1 X97.586 Y163.289 E76.67931
G1 X97.12 Y163.17 E76.69531
G1 X96.626 Y163.003 E76.71265
G1 X95.995 Y162.65 E76.7367
G1 X95.49 Y162.292 E76.75729
G1 X95.089 Y161.959 E76.77463
G1 X94.62 Y161.393 E76.79907
G1 X94.351 Y160.986 E76.8153
G1 X94.097 Y160.53 E76.83266
G1 X93.985 Y160.254 E76.84257
G1 X69.431 Y91.469 E79.27176
G1 X69.284 Y90.915 E79.29082
G1 X69.167 Y90.25 E79.31328
G1 X69.116 Y89.662 E79.33291
G1 X69.1 Y50.118 E80.64815
G1 X69.14 Y49.599 E80.66546
G1 X69.258 Y49.091 E80.68281
G1 X69.453 Y48.608 E80.70013
G1 X69.72 Y48.16 E80.71748
G1 X70.096 Y47.713 E80.73691
G1 X70.213 Y47.596 E80.74241
G0 F3600 X70.379 Y47.996
G1 F1800 X70.496 Y47.879 E80.74791
G1 X70.869 Y47.562 E80.76419
G1 X71.289 Y47.31 E80.78049
G1 X71.744 Y47.13 E80.79676
G1 X72.222 Y47.026 E80.81303
G1 X72.617 Y47 E80.8262
G1 X142.383 Y47 E83.14662
G1 X142.871 Y47.04 E83.16291
G1 X143.346 Y47.159 E83.1792
G1 X143.795 Y47.353 E83.19546
G1 X144.207 Y47.618 E83.21176
G1 X144.504 Y47.879 E83.22491
G1 X144.621 Y47.996 E83.23041
G1 X144.938 Y48.369 E83.24669
G1 X145.19 Y48.789 E83.26298
G1 X145.37 Y49.244 E83.27926
G1 X145.474 Y49.722 E83.29553
G1 X145.5 Y50.121 E83.30883
G1 X145.443 Y89.988 E84.63481
G1 X145.402 Y90.476 E84.6511
G1 X145.344 Y90.749 E84.66038
G1 X145.167 Y91.42 E84.68346
G1 X145.091 Y91.666 E84.69202
G1 X120.511 Y160.349 E87.11831
G1 X120.309 Y160.795 E87.1346
G1 X120.037 Y161.202 E87.15088
G1 X119.7 Y161.561 E87.16726
G1 X119.167 Y162.044 E87.19118
G1 X118.779 Y162.342 E87.20745
G1 X118.348 Y162.573 E87.22372
G1 X118.006 Y162.697 E87.23581
G1 X117.419 Y162.871 E87.25618
G1 X116.94 Y162.972 E87.27246
G1 X116.566 Y162.995 E87.28492
G1 X98.427 Y162.995 E87.88823
G1 X97.939 Y162.955 E87.90451
G1 X97.685 Y162.902 E87.91314
G1 X97.219 Y162.783 E87.92914
G1 X96.756 Y162.623 E87.94543
G1 X96.226 Y162.323 E87.96569
G1 X95.721 Y161.965 E87.98628
G1 X95.346 Y161.651 E88.00255
G1 X94.953 Y161.172 E88.02315
G1 X94.684 Y160.765 E88.03938
G1 X94.362 Y160.12 E88.06336
G1 X69.808 Y91.335 E90.49255
G1 X69.678 Y90.846 E90.50938
G1 X69.561 Y90.181 E90.53184
G1 X69.516 Y89.662 E90.54916
G1 X69.5 Y50.118 E91.8644
G1 X69.54 Y49.63 E91.88069
G1 X69.658 Y49.155 E91.89697
G1 X69.852 Y48.706 E91.91323
G1 X70.117 Y48.294 E91.92953
G1 X70.379 Y47.996 E91.94272
G0 F3600 X70.779 Y48.162
G1 F1800 X71.128 Y47.869 E91.95788
G1 X71.523 Y47.642 E91.97303
G1 X71.951 Y47.487 E91.98817
G1 X72.617 Y47.4 E92.01051
G1 X142.383 Y47.4 E94.33094
G1 X142.837 Y47.44 E94.3461
G1 X143.277 Y47.558 E94.36125
G1 X143.689 Y47.752 E94.3764
G1 X144.221 Y48.162 E94.39873
G1 X144.338 Y48.279 E94.40424
G1 X144.631 Y48.628 E94.41939
G1 X144.858 Y49.023 E94.43455
G1 X145.013 Y49.451 E94.44969
G1 X145.1 Y50.121 E94.47216
G1 X145.043 Y89.988 E95.79814
G1 X144.957 Y90.647 E95.82025
G1 X144.78 Y91.318 E95.84333
G1 X144.714 Y91.531 E95.85074
G1 X120.134 Y160.214 E98.27703
G1 X119.943 Y160.628 E98.2922
