;FLAVOR:Repetier
;TIME:1075
;Generated with Cura_SteamEngine 2.6.2
M104 S205
M109 S205
; -- START GCODE --
G21                     ;set units to millimetres
G90                     ;set to absolute positioning
M106 S0                 ;set fan speed to zero (turned off)
G28 X0 Y0               ;move to the X/Y origin (Home)
G28 Z0                  ;move to the Z origin (Home)
G1 Z15.0 F1200          ;move Z to position 15.0 mm
G92 E0                  ;zero the extruded length
G1 E20 F200             ;extrude 20mm of feed stock
G92 E0                  ;zero the extruded length again
G1 F7200                ;set feedrate to 120 mm/s
; -- end of START GCODE --
;LAYER_COUNT:50
;LAYER:0
M107
G0 F3600 X93.082 Y82.859 Z0.2
G0 X93.399 Y82.516
;TYPE:SKIRT
G1 F1800 X93.516 Y82.399 E0.0055
G1 X94.025 Y81.946 E0.02817
G1 X94.583 Y81.557 E0.05079
G1 X95.183 Y81.235 E0.07344
G1 X95.817 Y80.986 E0.09609
G1 X96.476 Y80.813 E0.11875
G1 X97.15 Y80.719 E0.14139
G1 X97.617 Y80.7 E0.15693
G1 X117.383 Y80.7 E0.81435
G1 X118.063 Y80.74 E0.83701
G1 X118.733 Y80.859 E0.85964
G1 X119.385 Y81.056 E0.8823
G1 X120.009 Y81.328 E0.90494
G1 X120.597 Y81.672 E0.9276
G1 X121.141 Y82.082 E0.95025
G1 X121.484 Y82.399 E0.96579
G1 X121.601 Y82.516 E0.97129
G1 X122.054 Y83.025 E0.99395
G1 X122.443 Y83.583 E1.01658
G1 X122.765 Y84.183 E1.03922
G1 X123.014 Y84.817 E1.06188
G1 X123.187 Y85.476 E1.08454
G1 X123.281 Y86.15 E1.10718
G1 X123.3 Y86.617 E1.12272
G1 X123.3 Y123.383 E2.34556
G1 X123.26 Y124.063 E2.36822
G1 X123.141 Y124.733 E2.39085
G1 X122.944 Y125.385 E2.41351
G1 X122.672 Y126.009 E2.43615
G1 X122.328 Y126.597 E2.4588
G1 X121.918 Y127.141 E2.48146
G1 X121.601 Y127.484 E2.49699
G1 X121.484 Y127.601 E2.5025
G1 X120.975 Y128.054 E2.52516
G1 X120.417 Y128.443 E2.54779
G1 X119.817 Y128.765 E2.57043
G1 X119.183 Y129.014 E2.59309
G1 X118.524 Y129.187 E2.61575
G1 X117.85 Y129.281 E2.63838
G1 X117.383 Y129.3 E2.65393
G1 X97.617 Y129.3 E3.31135
G1 X96.937 Y129.26 E3.334
G1 X96.267 Y129.141 E3.35664
G1 X95.615 Y128.944 E3.37929
G1 X94.991 Y128.672 E3.40193
G1 X94.403 Y128.328 E3.42459
G1 X93.859 Y127.918 E3.44725
G1 X93.516 Y127.601 E3.46278
G1 X93.399 Y127.484 E3.46828
G1 X92.946 Y126.975 E3.49095
G1 X92.557 Y126.417 E3.51357
G1 X92.235 Y125.817 E3.53622
G1 X91.986 Y125.183 E3.55887
G1 X91.813 Y124.524 E3.58154
G1 X91.719 Y123.85 E3.60417
G1 X91.7 Y123.383 E3.61972
G1 X91.7 Y86.617 E4.84256
G1 X91.74 Y85.937 E4.86521
G1 X91.859 Y85.267 E4.88785
G1 X92.056 Y84.615 E4.9105
G1 X92.328 Y83.991 E4.93314
G1 X92.672 Y83.403 E4.9558
G1 X93.082 Y82.859 E4.97846
G1 X93.399 Y82.516 E4.99399
G0 F3600 X93.799 Y82.682
G1 F1800 X94.291 Y82.246 E5.01585
G1 X94.832 Y81.874 E5.03769
G1 X95.414 Y81.57 E5.05953
G1 X96.029 Y81.339 E5.08138
G1 X96.668 Y81.184 E5.10325
G1 X97.617 Y81.1 E5.13494
G1 X117.383 Y81.1 E5.79236
G1 X118.039 Y81.14 E5.81422
G1 X118.685 Y81.259 E5.83606
G1 X119.312 Y81.456 E5.85792
G1 X119.91 Y81.728 E5.87977
G1 X120.471 Y82.07 E5.90163
G1 X121.201 Y82.682 E5.93331
G1 X121.318 Y82.799 E5.93881
G1 X121.754 Y83.291 E5.96068
G1 X122.126 Y83.832 E5.98252
G1 X122.43 Y84.414 E6.00435
G1 X122.661 Y85.029 E6.02621
G1 X122.816 Y85.668 E6.04807
G1 X122.9 Y86.617 E6.07976
G1 X122.9 Y123.383 E7.3026
G1 X122.86 Y124.039 E7.32446
G1 X122.741 Y124.685 E7.34631
G1 X122.544 Y125.312 E7.36817
G1 X122.272 Y125.91 E7.39002
G1 X121.93 Y126.471 E7.41187
G1 X121.318 Y127.201 E7.44356
G1 X121.201 Y127.318 E7.44906
G1 X120.709 Y127.754 E7.47092
G1 X120.168 Y128.126 E7.49276
G1 X119.586 Y128.43 E7.5146
G1 X118.971 Y128.661 E7.53645
G1 X118.332 Y128.816 E7.55832
G1 X117.383 Y128.9 E7.59001
G1 X97.617 Y128.9 E8.24743
G1 X96.961 Y128.86 E8.26929
G1 X96.315 Y128.741 E8.29113
G1 X95.688 Y128.544 E8.31299
G1 X95.09 Y128.272 E8.33484
G1 X94.529 Y127.93 E8.3567
G1 X93.799 Y127.318 E8.38838
G1 X93.682 Y127.201 E8.39388
G1 X93.246 Y126.709 E8.41575
G1 X92.874 Y126.168 E8.43759
G1 X92.57 Y125.586 E8.45943
G1 X92.339 Y124.971 E8.48128
G1 X92.184 Y124.332 E8.50314
G1 X92.1 Y123.383 E8.53483
G1 X92.1 Y86.617 E9.75767
G1 X92.14 Y85.961 E9.77953
G1 X92.259 Y85.315 E9.80138
G1 X92.456 Y84.688 E9.82324
G1 X92.728 Y84.09 E9.84509
G1 X93.07 Y83.529 E9.86694
G1 X93.682 Y82.799 E9.89863
G1 X93.799 Y82.682 E9.90413
G0 F3600 X94.081 Y82.964
G1 F1800 X94.556 Y82.547 E9.92515
G1 X95.079 Y82.192 E9.94618
G1 X95.643 Y81.906 E9.96721
G1 X96.238 Y81.694 E9.98822
G1 X96.856 Y81.558 E10.00926
G1 X97.617 Y81.5 E10.03465
G1 X117.383 Y81.5 E10.69207
G1 X118.014 Y81.54 E10.7131
G1 X118.635 Y81.659 E10.73413
G1 X119.235 Y81.856 E10.75513
G1 X119.807 Y82.127 E10.77618
G1 X120.339 Y82.467 E10.79718
G1 X120.919 Y82.964 E10.82259
G1 X121.036 Y83.081 E10.82809
G1 X121.453 Y83.556 E10.84911
G1 X121.808 Y84.079 E10.87014
G1 X122.094 Y84.643 E10.89117
G1 X122.306 Y85.238 E10.91218
G1 X122.442 Y85.856 E10.93323
G1 X122.5 Y86.617 E10.95861
G1 X122.5 Y123.383 E12.18145
G1 X122.46 Y124.014 E12.20248
G1 X122.341 Y124.635 E12.22351
G1 X122.144 Y125.235 E12.24452
G1 X121.873 Y125.807 E12.26557
G1 X121.533 Y126.339 E12.28657
G1 X121.036 Y126.919 E12.31197
G1 X120.919 Y127.036 E12.31748
G1 X120.444 Y127.453 E12.3385
G1 X119.921 Y127.808 E12.35952
G1 X119.357 Y128.094 E12.38055
G1 X118.762 Y128.306 E12.40156
G1 X118.144 Y128.442 E12.42261
G1 X117.383 Y128.5 E12.44799
G1 X97.617 Y128.5 E13.10541
G1 X96.986 Y128.46 E13.12644
G1 X96.365 Y128.341 E13.14747
G1 X95.765 Y128.144 E13.16848
G1 X95.193 Y127.873 E13.18953
G1 X94.661 Y127.533 E13.21053
G1 X94.081 Y127.036 E13.23593
G1 X93.964 Y126.919 E13.24144
G1 X93.547 Y126.444 E13.26246
G1 X93.192 Y125.921 E13.28348
G1 X92.906 Y125.357 E13.30452
G1 X92.694 Y124.762 E13.32552
G1 X92.558 Y124.144 E13.34657
G1 X92.5 Y123.383 E13.37196
G1 X92.5 Y86.617 E14.5948
G1 X92.54 Y85.986 E14.61583
G1 X92.659 Y85.365 E14.63686
G1 X92.856 Y84.765 E14.65786
G1 X93.127 Y84.193 E14.67891
G1 X93.467 Y83.661 E14.69991
G1 X93.964 Y83.081 E14.72532
G1 X94.081 Y82.964 E14.73082
G0 F3600 X94.364 Y83.247
G1 F1800 X94.82 Y82.848 E14.75097
G1 X95.325 Y82.512 E14.77115
G1 X95.869 Y82.245 E14.7913
G1 X96.444 Y82.052 E14.81148
G1 X97.039 Y81.936 E14.83164
G1 X97.617 Y81.9 E14.8509
G1 X117.383 Y81.9 E15.50832
G1 X117.988 Y81.94 E15.52849
G1 X118.582 Y82.059 E15.54864
G1 X119.156 Y82.255 E15.56881
G1 X119.699 Y82.526 E15.58899
G1 X120.202 Y82.865 E15.60917
G1 X120.636 Y83.247 E15.6284
G1 X120.753 Y83.364 E15.6339
G1 X121.152 Y83.82 E15.65406
G1 X121.488 Y84.325 E15.67423
G1 X121.755 Y84.869 E15.69438
G1 X121.948 Y85.444 E15.71456
G1 X122.064 Y86.039 E15.73472
G1 X122.1 Y86.617 E15.75398
G1 X122.1 Y123.383 E16.97682
G1 X122.06 Y123.988 E16.99699
G1 X121.941 Y124.582 E17.01714
G1 X121.745 Y125.156 E17.03731
G1 X121.474 Y125.699 E17.0575
G1 X121.135 Y126.202 E17.07767
G1 X120.753 Y126.636 E17.0969
G1 X120.636 Y126.753 E17.10241
G1 X120.18 Y127.152 E17.12256
G1 X119.675 Y127.488 E17.14273
G1 X119.131 Y127.755 E17.16289
G1 X118.556 Y127.948 E17.18306
G1 X117.961 Y128.064 E17.20322
G1 X117.383 Y128.1 E17.22249
G1 X97.617 Y128.1 E17.87991
G1 X97.012 Y128.06 E17.90007
G1 X96.418 Y127.941 E17.92022
G1 X95.844 Y127.745 E17.94039
G1 X95.301 Y127.474 E17.96058
G1 X94.798 Y127.135 E17.98075
G1 X94.364 Y126.753 E17.99998
G1 X94.247 Y126.636 E18.00549
G1 X93.848 Y126.18 E18.02564
G1 X93.512 Y125.675 E18.04581
G1 X93.245 Y125.131 E18.06597
G1 X93.052 Y124.556 E18.08614
G1 X92.936 Y123.961 E18.10631
G1 X92.9 Y123.383 E18.12557
G1 X92.9 Y86.617 E19.34841
G1 X92.94 Y86.012 E19.36858
G1 X93.059 Y85.418 E19.38872
G1 X93.255 Y84.844 E19.4089
G1 X93.526 Y84.301 E19.42908
G1 X93.865 Y83.798 E19.44926
G1 X94.247 Y83.364 E19.46849
G1 X94.364 Y83.247 E19.47399
G0 F3600 X94.53 Y83.647
G1 F1800 X94.647 Y83.53 E19.47949
G1 X95.084 Y83.15 E19.49876
G1 X95.569 Y82.833 E19.51803
G1 X96.093 Y82.586 E19.53729
G1 X96.646 Y82.414 E19.55656
G1 X97.218 Y82.319 E19.57584
G1 X97.617 Y82.3 E19.58913
G1 X117.383 Y82.3 E20.24655
G1 X117.961 Y82.34 E20.26582
G1 X118.528 Y82.459 E20.28509
G1 X119.073 Y82.655 E20.30435
G1 X119.586 Y82.924 E20.32362
G1 X120.057 Y83.261 E20.34288
G1 X120.353 Y83.53 E20.35618
G1 X120.47 Y83.647 E20.36168
G1 X120.85 Y84.084 E20.38095
G1 X121.167 Y84.569 E20.40022
G1 X121.414 Y85.093 E20.41948
G1 X121.586 Y85.646 E20.43875
G1 X121.681 Y86.218 E20.45803
G1 X121.7 Y86.617 E20.47132
G1 X121.7 Y123.383 E21.69416
G1 X121.66 Y123.961 E21.71343
G1 X121.541 Y124.528 E21.7327
G1 X121.345 Y125.073 E21.75196
G1 X121.076 Y125.586 E21.77123
G1 X120.739 Y126.057 E21.79049
G1 X120.47 Y126.353 E21.80379
G1 X120.353 Y126.47 E21.8093
G1 X119.916 Y126.85 E21.82856
G1 X119.431 Y127.167 E21.84783
G1 X118.907 Y127.414 E21.8671
G1 X118.354 Y127.586 E21.88636
G1 X117.782 Y127.681 E21.90565
G1 X117.383 Y127.7 E21.91893
G1 X97.617 Y127.7 E22.57635
G1 X97.039 Y127.66 E22.59562
G1 X96.472 Y127.541 E22.61489
G1 X95.927 Y127.345 E22.63415
G1 X95.414 Y127.076 E22.65342
G1 X94.943 Y126.739 E22.67268
G1 X94.647 Y126.47 E22.68599
G1 X94.53 Y126.353 E22.69149
G1 X94.15 Y125.916 E22.71075
G1 X93.833 Y125.431 E22.73002
G1 X93.586 Y124.907 E22.74929
G1 X93.414 Y124.354 E22.76855
G1 X93.319 Y123.782 E22.78784
G1 X93.3 Y123.383 E22.80112
G1 X93.3 Y86.617 E24.02396
G1 X93.34 Y86.039 E24.04323
G1 X93.459 Y85.472 E24.0625
G1 X93.655 Y84.927 E24.08177
G1 X93.924 Y84.414 E24.10103
G1 X94.261 Y83.943 E24.1203
G1 X94.53 Y83.647 E24.1336
G0 F3600 X94.93 Y83.813
G1 F1800 X95.347 Y83.453 E24.15192
G1 X95.811 Y83.156 E24.17025
G1 X96.314 Y82.93 E24.18859
G1 X96.844 Y82.779 E24.20692
G1 X97.617 Y82.7 E24.23276
G1 X117.383 Y82.7 E24.89018
G1 X117.933 Y82.74 E24.90852
G1 X118.471 Y82.859 E24.92685
G1 X118.986 Y83.055 E24.94517
G1 X119.467 Y83.323 E24.96349
G1 X120.07 Y83.813 E24.98933
G1 X120.187 Y83.93 E24.99483
G1 X120.547 Y84.347 E25.01316
G1 X120.844 Y84.811 E25.03148
G1 X121.07 Y85.314 E25.04982
G1 X121.221 Y85.844 E25.06815
G1 X121.3 Y86.617 E25.094
G1 X121.3 Y123.383 E26.31684
G1 X121.26 Y123.933 E26.33518
G1 X121.141 Y124.471 E26.3535
G1 X120.945 Y124.986 E26.37183
G1 X120.677 Y125.467 E26.39015
G1 X120.187 Y126.07 E26.41599
G1 X120.07 Y126.187 E26.42149
G1 X119.653 Y126.547 E26.43982
G1 X119.189 Y126.844 E26.45814
G1 X118.686 Y127.07 E26.47648
G1 X118.156 Y127.221 E26.49481
G1 X117.383 Y127.3 E26.52065
G1 X97.617 Y127.3 E27.17807
G1 X97.067 Y127.26 E27.19641
G1 X96.529 Y127.141 E27.21474
G1 X96.014 Y126.945 E27.23307
G1 X95.533 Y126.677 E27.25138
G1 X94.93 Y126.187 E27.27722
G1 X94.813 Y126.07 E27.28273
G1 X94.453 Y125.653 E27.30105
G1 X94.156 Y125.189 E27.31937
G1 X93.93 Y124.686 E27.33772
G1 X93.779 Y124.156 E27.35604
G1 X93.7 Y123.383 E27.38189
G1 X93.7 Y86.617 E28.60473
G1 X93.74 Y86.067 E28.62307
G1 X93.859 Y85.529 E28.6414
G1 X94.055 Y85.014 E28.65973
G1 X94.323 Y84.533 E28.67804
G1 X94.813 Y83.93 E28.70388
G1 X94.93 Y83.813 E28.70939
G0 F3600 X95.213 Y84.096
G1 F1800 X95.609 Y83.757 E28.72672
G1 X96.051 Y83.482 E28.74404
G1 X96.531 Y83.278 E28.76138
G1 X97.036 Y83.15 E28.77871
G1 X97.617 Y83.1 E28.79811
G1 X117.383 Y83.1 E29.45553
G1 X117.903 Y83.14 E29.47287
G1 X118.41 Y83.259 E29.4902
G1 X118.893 Y83.454 E29.50752
G1 X119.341 Y83.72 E29.52485
G1 X119.787 Y84.096 E29.54425
G1 X119.904 Y84.213 E29.54975
G1 X120.243 Y84.609 E29.56709
G1 X120.518 Y85.051 E29.58441
G1 X120.722 Y85.531 E29.60175
G1 X120.85 Y86.036 E29.61908
G1 X120.9 Y86.617 E29.63848
G1 X120.9 Y123.383 E30.86132
G1 X120.86 Y123.903 E30.87866
G1 X120.741 Y124.41 E30.89599
G1 X120.546 Y124.893 E30.91331
G1 X120.28 Y125.341 E30.93064
G1 X119.904 Y125.787 E30.95004
G1 X119.787 Y125.904 E30.95555
G1 X119.391 Y126.243 E30.97288
G1 X118.949 Y126.518 E30.9902
G1 X118.469 Y126.722 E31.00754
G1 X117.964 Y126.85 E31.02487
G1 X117.383 Y126.9 E31.04427
G1 X97.617 Y126.9 E31.70169
G1 X97.097 Y126.86 E31.71903
G1 X96.59 Y126.741 E31.73635
G1 X96.107 Y126.546 E31.75368
G1 X95.659 Y126.28 E31.77101
G1 X95.213 Y125.904 E31.79041
G1 X95.096 Y125.787 E31.79591
G1 X94.757 Y125.391 E31.81325
G1 X94.482 Y124.949 E31.83057
G1 X94.278 Y124.469 E31.84791
G1 X94.15 Y123.964 E31.86524
G1 X94.1 Y123.383 E31.88464
G1 X94.1 Y86.617 E33.10748
G1 X94.14 Y86.097 E33.12482
G1 X94.259 Y85.59 E33.14215
G1 X94.454 Y85.107 E33.15947
G1 X94.72 Y84.659 E33.1768
G1 X95.096 Y84.213 E33.1962
G1 X95.213 Y84.096 E33.2017
G0 F3600 X95.379 Y84.496
G1 F1800 X95.496 Y84.379 E33.20721
G1 X95.869 Y84.062 E33.22349
G1 X96.289 Y83.81 E33.23978
G1 X96.744 Y83.63 E33.25605
G1 X97.222 Y83.526 E33.27232
G1 X97.617 Y83.5 E33.28549
G1 X117.383 Y83.5 E33.94291
G1 X117.871 Y83.54 E33.9592
G1 X118.346 Y83.659 E33.97548
G1 X118.795 Y83.853 E33.99175
G1 X119.207 Y84.118 E34.00804
G1 X119.504 Y84.379 E34.02119
G1 X119.621 Y84.496 E34.0267
G1 X119.938 Y84.869 E34.04298
G1 X120.19 Y85.289 E34.05927
G1 X120.37 Y85.744 E34.07554
G1 X120.474 Y86.222 E34.09181
G1 X120.5 Y86.617 E34.10498
G1 X120.5 Y123.383 E35.32782
G1 X120.46 Y123.871 E35.34411
G1 X120.341 Y124.346 E35.36039
G1 X120.147 Y124.795 E35.37666
G1 X119.882 Y125.207 E35.39296
G1 X119.621 Y125.504 E35.40611
G1 X119.504 Y125.621 E35.41161
G1 X119.131 Y125.938 E35.42789
G1 X118.711 Y126.19 E35.44418
G1 X118.256 Y126.37 E35.46046
G1 X117.778 Y126.474 E35.47673
G1 X117.383 Y126.5 E35.48989
G1 X97.617 Y126.5 E36.14731
G1 X97.129 Y126.46 E36.1636
G1 X96.654 Y126.341 E36.17989
G1 X96.205 Y126.147 E36.19615
G1 X95.793 Y125.882 E36.21245
G1 X95.496 Y125.621 E36.2256
G1 X95.379 Y125.504 E36.2311
G1 X95.062 Y125.131 E36.24738
G1 X94.81 Y124.711 E36.26367
G1 X94.63 Y124.256 E36.27995
G1 X94.526 Y123.778 E36.29622
G1 X94.5 Y123.383 E36.30938
G1 X94.5 Y86.617 E37.53223
G1 X94.54 Y86.129 E37.54851
G1 X94.659 Y85.654 E37.5648
G1 X94.853 Y85.205 E37.58107
G1 X95.118 Y84.793 E37.59736
G1 X95.379 Y84.496 E37.61051
G0 F3600 X95.779 Y84.662
G1 F1800 X96.128 Y84.369 E37.62567
G1 X96.523 Y84.142 E37.64082
G1 X96.951 Y83.987 E37.65596
G1 X97.617 Y83.9 E37.6783
G1 X117.383 Y83.9 E38.33572
G1 X117.837 Y83.94 E38.35088
G1 X118.277 Y84.058 E38.36603
G1 X118.689 Y84.252 E38.38117
G1 X119.221 Y84.662 E38.40351
G1 X119.338 Y84.779 E38.40902
G1 X119.631 Y85.128 E38.42417
G1 X119.858 Y85.523 E38.43933
G1 X120.013 Y85.951 E38.45447
G1 X120.1 Y86.617 E38.4768
G1 X120.1 Y123.383 E39.69965
G1 X120.06 Y123.837 E39.71481
G1 X119.942 Y124.277 E39.72996
G1 X119.748 Y124.689 E39.7451
G1 X119.338 Y125.221 E39.76744
G1 X119.221 Y125.338 E39.77295
G1 X118.872 Y125.631 E39.7881
G1 X118.477 Y125.858 E39.80326
G1 X118.049 Y126.013 E39.8184
G1 X117.383 Y126.1 E39.84073
G1 X97.617 Y126.1 E40.49815
G1 X97.163 Y126.06 E40.51331
G1 X96.723 Y125.942 E40.52846
G1 X96.311 Y125.748 E40.54361
G1 X95.779 Y125.338 E40.56595
G1 X95.662 Y125.221 E40.57145
G1 X95.369 Y124.872 E40.58661
G1 X95.142 Y124.477 E40.60176
G1 X94.987 Y124.049 E40.6169
G1 X94.9 Y123.383 E40.63924
G1 X94.9 Y86.617 E41.86208
G1 X94.94 Y86.163 E41.87724
G1 X95.058 Y85.723 E41.89239
G1 X95.252 Y85.311 E41.90754
G1 X95.662 Y84.779 E41.92988
G1 X95.779 Y84.662 E41.93538
G0 F3600 X96.061 Y84.944
G1 F1800 X96.385 Y84.678 E41.94933
G1 X96.752 Y84.477 E41.96324
G1 X97.152 Y84.35 E41.9772
G1 X97.617 Y84.3 E41.99276
G1 X117.383 Y84.3 E42.65018
G1 X117.8 Y84.34 E42.66411
G1 X118.202 Y84.458 E42.67805
G1 X118.574 Y84.651 E42.69198
G1 X118.939 Y84.944 E42.70755
G1 X119.056 Y85.061 E42.71305
G1 X119.322 Y85.385 E42.727
G1 X119.523 Y85.752 E42.74091
G1 X119.65 Y86.152 E42.75487
G1 X119.7 Y86.617 E42.77043
G1 X119.7 Y123.383 E43.99327
G1 X119.66 Y123.8 E44.0072
G1 X119.542 Y124.202 E44.02114
G1 X119.349 Y124.574 E44.03508
G1 X119.056 Y124.939 E44.05064
G1 X118.939 Y125.056 E44.05615
G1 X118.615 Y125.322 E44.07009
G1 X118.248 Y125.523 E44.08401
G1 X117.848 Y125.65 E44.09797
G1 X117.383 Y125.7 E44.11352
G1 X97.617 Y125.7 E44.77094
G1 X97.2 Y125.66 E44.78487
G1 X96.798 Y125.542 E44.79881
G1 X96.426 Y125.349 E44.81275
G1 X96.061 Y125.056 E44.82832
G1 X95.944 Y124.939 E44.83382
G1 X95.678 Y124.615 E44.84776
G1 X95.477 Y124.248 E44.86168
G1 X95.35 Y123.848 E44.87564
G1 X95.3 Y123.383 E44.89119
G1 X95.3 Y86.617 E46.11403
G1 X95.34 Y86.2 E46.12797
G1 X95.458 Y85.798 E46.1419
G1 X95.651 Y85.426 E46.15584
G1 X95.944 Y85.061 E46.17141
G1 X96.061 Y84.944 E46.17691
G0 F3600 X96.227 Y85.344
