;FLAVOR:Repetier
;TIME:701
;Generated with Cura_SteamEngine 2.6.2
M104 S205
M109 S205
; -- START GCODE --
G21                     ;set units to millimetres
G90                     ;set to absolute positioning
M106 S0                 ;set fan speed to zero (turned off)
G28 X0 Y0               ;move to the X/Y origin (Home)
G28 Z0                  ;move to the Z origin (Home)
G1 Z15.0 F1200          ;move Z to position 15.0 mm
G92 E0                  ;zero the extruded length
G1 E20 F200             ;extrude 20mm of feed stock
G92 E0                  ;zero the extruded length again
G1 F7200                ;set feedrate to 120 mm/s
; -- end of START GCODE --
;LAYER_COUNT:34
;LAYER:0
M107
G0 F3600 X120.97 Y102.418 Z0.2
;TYPE:SKIRT
G1 F1800 X122.157 Y101.206 E0.05642
G1 X122.896 Y100.569 E0.08887
G1 X124.254 Y99.584 E0.14467
G1 X124.671 Y99.308 E0.1613
G1 X125.417 Y98.86 E0.19025
G1 X125.517 Y98.704 E0.19641
G1 X125.918 Y98.154 E0.21905
G1 X126.38 Y97.655 E0.24167
G1 X126.899 Y97.213 E0.26434
G1 X127.465 Y96.835 E0.28698
G1 X128.072 Y96.526 E0.30963
G1 X128.71 Y96.29 E0.33226
G1 X129.372 Y96.131 E0.3549
G1 X130.049 Y96.05 E0.37758
G1 X130.396 Y96.04 E0.38913
G1 X135.258 Y96.04 E0.55084
G1 X135.938 Y96.08 E0.57349
G1 X136.608 Y96.199 E0.59612
G1 X137.26 Y96.396 E0.61878
G1 X137.884 Y96.668 E0.64142
G1 X138.472 Y97.012 E0.66408
G1 X139.016 Y97.422 E0.68673
G1 X139.507 Y97.893 E0.70936
G1 X140.107 Y98.657 E0.74167
G1 X140.288 Y98.933 E0.75265
G1 X141.672 Y99.764 E0.80634
G1 X142.466 Y100.338 E0.83893
G1 X143.743 Y101.436 E0.89495
G1 X144.429 Y102.134 E0.9275
G1 X145.505 Y103.433 E0.9836
G1 X146.059 Y104.23 E1.01588
G1 X146.899 Y105.683 E1.0717
G1 X147.317 Y106.571 E1.10435
G1 X147.903 Y108.153 E1.16046
G1 X148.151 Y109.03 E1.19077
G1 X149.419 Y115.366 E1.40569
G1 X149.509 Y115.441 E1.40958
G1 X149.994 Y115.927 E1.43242
G1 X150.646 Y116.706 E1.46621
G1 X151.054 Y117.291 E1.48993
G1 X151.557 Y118.165 E1.52347
G1 X151.846 Y118.787 E1.54628
G1 X152.188 Y119.729 E1.57961
G1 X152.37 Y120.408 E1.60299
G1 X152.508 Y121.075 E1.62565
G1 X152.567 Y121.793 E1.64961
G1 X152.626 Y124.719 E1.74695
G1 X152.605 Y125.34 E1.76761
G1 X152.544 Y126.04 E1.79098
G1 X152.368 Y127.04 E1.82476
G1 X152.186 Y127.718 E1.8481
G1 X151.971 Y128.364 E1.87075
G1 X151.834 Y128.68 E1.8822
G1 X151.539 Y129.308 E1.90528
G1 X151.038 Y130.172 E1.9385
G1 X150.632 Y130.751 E1.96202
G1 X149.98 Y131.526 E1.99571
G1 X149.499 Y132.006 E2.01831
G1 X148.725 Y132.654 E2.05188
G1 X148.14 Y133.063 E2.07562
G1 X147.259 Y133.571 E2.10945
G1 X146.63 Y133.863 E2.13251
G1 X145.675 Y134.208 E2.16628
G1 X145.004 Y134.386 E2.18937
G1 X144.337 Y134.522 E2.21201
G1 X143.604 Y134.579 E2.23647
G1 X139.626 Y134.639 E2.36879
G1 X139.046 Y134.619 E2.38809
G1 X138.378 Y134.562 E2.41039
G1 X137.436 Y134.403 E2.44217
G1 X136.782 Y134.236 E2.46462
G1 X135.842 Y133.907 E2.49774
G1 X135.225 Y133.63 E2.52024
G1 X134.389 Y133.169 E2.55199
G1 X133.831 Y132.798 E2.57428
G1 X133.056 Y132.181 E2.60722
G1 X132.828 Y131.966 E2.61765
G1 X132.608 Y132.174 E2.62772
G1 X131.851 Y132.779 E2.65995
G1 X131.289 Y133.156 E2.68246
G1 X130.42 Y133.636 E2.71547
G1 X129.792 Y133.916 E2.73834
G1 X128.855 Y134.241 E2.77133
G1 X128.2 Y134.407 E2.7938
G1 X127.531 Y134.535 E2.81646
G1 X126.856 Y134.584 E2.83897
G1 X122.911 Y134.639 E2.97019
G1 X122.318 Y134.617 E2.98993
G1 X121.619 Y134.555 E3.01327
G1 X120.629 Y134.38 E3.04671
G1 X119.954 Y134.199 E3.06995
G1 X119.003 Y133.853 E3.10361
G1 X118.371 Y133.558 E3.12681
G1 X117.772 Y133.234 E3.14946
G1 X117.485 Y133.044 E3.16091
G1 X116.907 Y132.637 E3.18442
G1 X116.145 Y131.996 E3.21754
G1 X115.664 Y131.515 E3.24016
G1 X115.012 Y130.737 E3.27392
G1 X114.603 Y130.152 E3.29766
G1 X114.246 Y129.572 E3.32032
G1 X114.094 Y129.268 E3.33162
G1 X113.809 Y128.653 E3.35417
G1 X113.559 Y128.019 E3.37683
G1 X113.409 Y127.473 E3.39567
G1 X113.181 Y126.448 E3.43059
G1 X113.073 Y125.776 E3.45323
G1 X113.043 Y125.187 E3.47284
G1 X113.044 Y122.234 E3.57106
G1 X113.132 Y121.227 E3.60468
G1 X113.25 Y120.559 E3.62724
G1 X113.408 Y119.897 E3.64988
G1 X113.516 Y119.572 E3.66127
G1 X113.762 Y118.901 E3.68504
G1 X114.185 Y117.997 E3.71824
G1 X114.525 Y117.408 E3.74086
G1 X115.108 Y116.576 E3.77465
G1 X115.567 Y116.03 E3.79837
G1 X116.035 Y115.535 E3.82103
G1 X116.227 Y115.366 E3.82954
G1 X117.305 Y109.882 E4.01543
G1 X117.406 Y109.453 E4.03008
G1 X117.854 Y107.835 E4.08592
G1 X118.19 Y106.927 E4.11813
G1 X118.9 Y105.408 E4.17389
G1 X119.384 Y104.565 E4.20622
G1 X120.344 Y103.177 E4.26236
G1 X120.97 Y102.418 E4.29508
G0 F3600 X121.256 Y102.698
G1 F1800 X122.443 Y101.486 E4.3515
G1 X123.13 Y100.893 E4.38169
G1 X124.488 Y99.908 E4.43749
G1 X124.877 Y99.651 E4.45299
G1 X125.703 Y99.155 E4.48504
G1 X125.853 Y98.921 E4.49428
G1 X126.241 Y98.391 E4.51613
G1 X126.691 Y97.912 E4.53799
G1 X127.195 Y97.491 E4.55983
G1 X127.747 Y97.134 E4.58169
G1 X128.338 Y96.847 E4.60355
G1 X128.96 Y96.635 E4.6254
G1 X129.602 Y96.499 E4.64723
G1 X130.396 Y96.44 E4.67371
G1 X135.258 Y96.44 E4.83542
G1 X135.914 Y96.48 E4.85728
G1 X136.56 Y96.599 E4.87913
G1 X137.187 Y96.796 E4.90099
G1 X137.785 Y97.068 E4.92284
G1 X138.346 Y97.41 E4.94469
G1 X138.861 Y97.818 E4.96654
G1 X139.323 Y98.285 E4.98839
G1 X139.772 Y98.877 E5.01311
G1 X140.002 Y99.228 E5.02706
G1 X141.466 Y100.107 E5.08386
G1 X142.206 Y100.641 E5.11421
G1 X143.483 Y101.739 E5.17023
G1 X144.121 Y102.389 E5.20052
G1 X145.197 Y103.688 E5.25662
G1 X145.713 Y104.43 E5.28668
G1 X146.553 Y105.883 E5.3425
G1 X146.942 Y106.71 E5.3729
G1 X147.528 Y108.292 E5.42901
G1 X147.759 Y109.108 E5.45722
G1 X149.055 Y115.58 E5.67675
G1 X149.226 Y115.724 E5.68419
G1 X149.711 Y116.21 E5.70702
G1 X150.318 Y116.935 E5.73847
G1 X150.726 Y117.52 E5.76219
G1 X151.194 Y118.334 E5.79342
G1 X151.483 Y118.956 E5.81623
G1 X151.802 Y119.833 E5.84727
G1 X151.984 Y120.512 E5.87065
G1 X152.115 Y121.156 E5.89251
G1 X152.167 Y121.801 E5.91403
G1 X152.226 Y124.727 E6.01137
G1 X152.207 Y125.305 E6.03061
G1 X152.146 Y126.005 E6.05398
G1 X151.981 Y126.936 E6.08543
G1 X151.799 Y127.614 E6.10878
G1 X151.472 Y128.51 E6.1405
G1 X151.177 Y129.138 E6.16358
G1 X150.71 Y129.942 E6.1945
G1 X150.304 Y130.521 E6.21802
G1 X149.697 Y131.243 E6.24939
G1 X149.216 Y131.723 E6.272
G1 X148.496 Y132.327 E6.30325
G1 X147.911 Y132.736 E6.32699
G1 X147.091 Y133.208 E6.35846
G1 X146.462 Y133.5 E6.38153
G1 X145.573 Y133.821 E6.41296
G1 X144.902 Y133.999 E6.43605
G1 X144.258 Y134.129 E6.45791
G1 X143.598 Y134.179 E6.47992
G1 X139.62 Y134.239 E6.61224
G1 X139.08 Y134.22 E6.63022
G1 X138.412 Y134.163 E6.65251
G1 X137.535 Y134.015 E6.6821
G1 X136.881 Y133.848 E6.70455
G1 X136.005 Y133.542 E6.73541
G1 X135.388 Y133.265 E6.7579
G1 X134.61 Y132.836 E6.78745
G1 X134.052 Y132.465 E6.80974
G1 X133.331 Y131.891 E6.84039
G1 X132.828 Y131.415 E6.86342
G1 X132.333 Y131.883 E6.88608
G1 X131.628 Y132.446 E6.91609
G1 X131.066 Y132.823 E6.9386
G1 X130.257 Y133.271 E6.96936
G1 X129.629 Y133.551 E6.99223
G1 X128.757 Y133.854 E7.02293
G1 X128.102 Y134.02 E7.0454
G1 X127.456 Y134.142 E7.06727
G1 X126.85 Y134.184 E7.08747
G1 X122.905 Y134.239 E7.2187
G1 X122.353 Y134.219 E7.23707
G1 X121.654 Y134.157 E7.26041
G1 X120.732 Y133.994 E7.29155
G1 X120.057 Y133.813 E7.31479
G1 X119.172 Y133.49 E7.34613
G1 X118.54 Y133.195 E7.36933
G1 X117.715 Y132.717 E7.40104
G1 X117.137 Y132.31 E7.42455
G1 X116.428 Y131.713 E7.45538
G1 X115.947 Y131.232 E7.478
G1 X115.339 Y130.508 E7.50945
G1 X114.93 Y129.923 E7.53319
G1 X114.457 Y129.099 E7.56479
G1 X114.172 Y128.484 E7.58733
G1 X113.932 Y127.873 E7.60917
G1 X113.8 Y127.387 E7.62592
G1 X113.572 Y126.362 E7.66084
G1 X113.468 Y125.713 E7.6827
G1 X113.443 Y125.187 E7.70022
G1 X113.444 Y122.234 E7.79844
G1 X113.526 Y121.297 E7.82972
G1 X113.644 Y120.629 E7.85228
G1 X113.892 Y119.709 E7.88397
G1 X114.138 Y119.038 E7.90774
G1 X114.531 Y118.197 E7.93862
G1 X114.871 Y117.608 E7.96124
G1 X115.415 Y116.833 E7.99273
G1 X115.874 Y116.287 E8.01646
G1 X116.552 Y115.612 E8.04828
G1 X116.592 Y115.578 E8.05002
G1 X117.697 Y109.959 E8.24049
G1 X117.792 Y109.56 E8.25413
G1 X118.24 Y107.942 E8.30997
G1 X118.552 Y107.096 E8.33996
G1 X119.262 Y105.577 E8.39573
G1 X119.713 Y104.792 E8.42584
G1 X120.673 Y103.404 E8.48197
G1 X121.256 Y102.698 E8.51243
G0 F3600 X121.542 Y102.977
G1 F1800 X122.729 Y101.765 E8.56885
G1 X123.365 Y101.217 E8.59677
G1 X124.723 Y100.232 E8.65257
G1 X125.083 Y99.993 E8.66694
G1 X125.964 Y99.463 E8.70114
G1 X126.025 Y99.394 E8.7042
G1 X126.19 Y99.137 E8.71436
G1 X126.564 Y98.628 E8.73537
G1 X127 Y98.17 E8.7564
G1 X127.49 Y97.771 E8.77742
G1 X128.027 Y97.437 E8.79845
G1 X128.602 Y97.173 E8.8195
G1 X129.205 Y96.984 E8.84051
G1 X129.827 Y96.872 E8.86153
G1 X130.396 Y96.84 E8.88049
G1 X135.258 Y96.84 E9.0422
G1 X135.889 Y96.88 E9.06323
G1 X136.51 Y96.999 E9.08426
G1 X137.11 Y97.196 E9.10526
G1 X137.682 Y97.467 E9.12632
G1 X138.214 Y97.807 E9.14731
G1 X138.699 Y98.213 E9.16835
G1 X139.129 Y98.676 E9.18937
G1 X139.438 Y99.096 E9.20671
G1 X139.719 Y99.524 E9.22374
G1 X141.26 Y100.45 E9.28354
G1 X141.945 Y100.945 E9.31164
G1 X143.222 Y102.043 E9.36766
G1 X143.813 Y102.644 E9.39569
G1 X144.889 Y103.943 E9.4518
G1 X145.367 Y104.631 E9.47966
G1 X146.207 Y106.084 E9.53548
G1 X146.567 Y106.849 E9.5636
G1 X147.153 Y108.431 E9.61971
G1 X147.367 Y109.187 E9.64585
G1 X148.689 Y115.793 E9.86992
G1 X148.943 Y116.006 E9.88094
G1 X149.428 Y116.492 E9.90378
G1 X149.99 Y117.164 E9.93292
G1 X150.398 Y117.749 E9.95664
G1 X150.831 Y118.502 E9.98553
G1 X151.12 Y119.124 E10.00834
G1 X151.416 Y119.936 E10.03709
G1 X151.598 Y120.615 E10.06047
G1 X151.722 Y121.235 E10.0815
G1 X151.767 Y121.809 E10.10065
G1 X151.826 Y124.735 E10.19799
G1 X151.808 Y125.27 E10.21579
G1 X151.747 Y125.97 E10.23916
G1 X151.595 Y126.832 E10.26827
G1 X151.413 Y127.51 E10.29162
G1 X151.11 Y128.34 E10.32101
G1 X150.815 Y128.968 E10.34409
G1 X150.383 Y129.713 E10.37273
G1 X149.977 Y130.292 E10.39625
G1 X149.415 Y130.96 E10.42529
G1 X148.934 Y131.44 E10.44789
G1 X148.267 Y131.999 E10.47683
G1 X147.682 Y132.408 E10.50057
G1 X146.922 Y132.845 E10.52973
G1 X146.293 Y133.137 E10.5528
G1 X145.47 Y133.435 E10.58191
G1 X144.799 Y133.613 E10.605
G1 X144.179 Y133.736 E10.62602
G1 X143.592 Y133.779 E10.6456
G1 X139.614 Y133.839 E10.77792
G1 X139.114 Y133.822 E10.79456
G1 X138.446 Y133.765 E10.81686
G1 X137.634 Y133.628 E10.84425
G1 X136.98 Y133.461 E10.8667
G1 X136.169 Y133.177 E10.89528
G1 X135.552 Y132.9 E10.91777
G1 X134.832 Y132.503 E10.94512
G1 X134.274 Y132.132 E10.96741
G1 X133.606 Y131.6 E10.99581
G1 X132.828 Y130.864 E11.03143
G1 X132.058 Y131.593 E11.0667
G1 X131.405 Y132.114 E11.09448
G1 X130.843 Y132.491 E11.11699
G1 X130.094 Y132.906 E11.14547
G1 X129.466 Y133.186 E11.16834
G1 X128.658 Y133.466 E11.19678
G1 X128.003 Y133.632 E11.21926
G1 X127.382 Y133.748 E11.24027
G1 X126.845 Y133.785 E11.25817
G1 X122.9 Y133.84 E11.3894
G1 X122.388 Y133.82 E11.40644
G1 X121.689 Y133.758 E11.42978
G1 X120.836 Y133.607 E11.45859
G1 X120.161 Y133.426 E11.48183
G1 X119.341 Y133.128 E11.51085
G1 X118.709 Y132.833 E11.53405
G1 X117.945 Y132.39 E11.56342
G1 X117.367 Y131.983 E11.58694
G1 X116.71 Y131.431 E11.61548
G1 X116.229 Y130.95 E11.6381
G1 X115.667 Y130.279 E11.66721
G1 X115.258 Y129.694 E11.69095
G1 X114.819 Y128.931 E11.72023
G1 X114.534 Y128.316 E11.74278
G1 X114.305 Y127.727 E11.7638
G1 X114.19 Y127.3 E11.7785
G1 X113.962 Y126.275 E11.81343
G1 X113.864 Y125.65 E11.83447
G1 X113.843 Y125.187 E11.84989
G1 X113.844 Y122.234 E11.9481
G1 X113.92 Y121.366 E11.97708
G1 X114.038 Y120.698 E11.99964
G1 X114.268 Y119.847 E12.02896
G1 X114.514 Y119.176 E12.05273
G1 X114.878 Y118.397 E12.08133
G1 X115.218 Y117.808 E12.10395
G1 X115.721 Y117.091 E12.13308
G1 X116.18 Y116.545 E12.15681
G1 X116.807 Y115.92 E12.18625
G1 X116.958 Y115.794 E12.19279
G1 X118.09 Y110.037 E12.38794
G1 X118.177 Y109.667 E12.40058
G1 X118.625 Y108.049 E12.45642
G1 X118.914 Y107.266 E12.48418
G1 X119.624 Y105.747 E12.53995
G1 X120.042 Y105.02 E12.56784
G1 X121.002 Y103.632 E12.62397
G1 X121.542 Y102.977 E12.65221
G0 F3600 X121.828 Y103.257
G1 F1800 X123.015 Y102.045 E12.70863
G1 X123.6 Y101.54 E12.73434
G1 X124.958 Y100.555 E12.79013
G1 X125.289 Y100.336 E12.80333
G1 X126.225 Y99.773 E12.83966
G1 X126.344 Y99.637 E12.84567
G1 X126.526 Y99.353 E12.85689
G1 X126.887 Y98.866 E12.87706
G1 X127.308 Y98.43 E12.89721
G1 X127.784 Y98.054 E12.91739
G1 X128.304 Y97.743 E12.93754
G1 X128.861 Y97.504 E12.9577
G1 X129.445 Y97.339 E12.97788
G1 X130.045 Y97.253 E12.99804
G1 X130.396 Y97.24 E13.00973
G1 X135.258 Y97.24 E13.17144
G1 X135.863 Y97.28 E13.1916
G1 X136.457 Y97.399 E13.21175
G1 X137.031 Y97.595 E13.23193
G1 X137.574 Y97.866 E13.25211
G1 X138.077 Y98.205 E13.27229
G1 X138.53 Y98.607 E13.29243
G1 X138.927 Y99.065 E13.31259
G1 X139.103 Y99.316 E13.32279
G1 X139.434 Y99.82 E13.34284
G1 X141.054 Y100.793 E13.40569
G1 X141.684 Y101.248 E13.43154
G1 X142.961 Y102.346 E13.48756
G1 X143.505 Y102.9 E13.51338
G1 X144.581 Y104.199 E13.56948
G1 X145.02 Y104.831 E13.59508
G1 X145.86 Y106.284 E13.6509
G1 X146.192 Y106.988 E13.67679
G1 X146.778 Y108.57 E13.7329
G1 X146.975 Y109.265 E13.75692
G1 X148.325 Y116.006 E13.98558
G1 X148.66 Y116.289 E14.00017
G1 X149.145 Y116.775 E14.023
G1 X149.662 Y117.393 E14.0498
G1 X150.07 Y117.978 E14.07353
G1 X150.469 Y118.671 E14.10012
G1 X150.758 Y119.293 E14.12293
G1 X151.029 Y120.04 E14.14936
G1 X151.211 Y120.719 E14.17274
G1 X151.329 Y121.314 E14.19292
G1 X151.367 Y121.817 E14.2097
G1 X151.426 Y124.743 E14.30704
G1 X151.41 Y125.235 E14.32341
G1 X151.349 Y125.935 E14.34678
G1 X151.209 Y126.729 E14.3736
G1 X151.027 Y127.407 E14.39694
G1 X150.748 Y128.17 E14.42396
G1 X150.453 Y128.798 E14.44704
G1 X150.055 Y129.483 E14.47339
G1 X149.649 Y130.062 E14.49691
G1 X149.132 Y130.677 E14.52363
G1 X148.651 Y131.157 E14.54624
G1 X148.038 Y131.671 E14.57284
G1 X147.453 Y132.08 E14.59658
G1 X146.754 Y132.482 E14.6234
G1 X146.125 Y132.774 E14.64647
G1 X145.367 Y133.048 E14.67328
G1 X144.696 Y133.226 E14.69637
G1 X144.101 Y133.343 E14.71653
G1 X143.586 Y133.379 E14.73371
G1 X139.608 Y133.439 E14.86603
G1 X139.148 Y133.423 E14.88134
G1 X138.48 Y133.366 E14.90364
G1 X137.733 Y133.24 E14.92883
G1 X137.079 Y133.073 E14.95128
G1 X136.333 Y132.812 E14.97757
G1 X135.716 Y132.535 E15.00006
G1 X135.053 Y132.17 E15.02524
G1 X134.495 Y131.799 E15.04752
G1 X133.881 Y131.31 E15.07363
G1 X133.069 Y130.542 E15.1108
G1 X133.012 Y130.503 E15.1131
G1 X132.953 Y130.477 E15.11525
G1 X132.889 Y130.461 E15.11744
G1 X132.827 Y130.456 E15.11951
G1 X132.767 Y130.461 E15.12151
G1 X132.701 Y130.478 E15.12378
G1 X132.637 Y130.506 E15.1261
G1 X132.591 Y130.537 E15.12795
G1 X131.783 Y131.302 E15.16495
G1 X131.183 Y131.782 E15.19051
G1 X130.621 Y132.159 E15.21302
G1 X129.931 Y132.54 E15.23924
G1 X129.303 Y132.82 E15.2621
G1 X128.56 Y133.078 E15.28826
G1 X127.905 Y133.244 E15.31074
G1 X127.309 Y133.354 E15.3309
G1 X126.839 Y133.385 E15.34656
G1 X122.894 Y133.44 E15.47779
G1 X122.424 Y133.422 E15.49343
G1 X121.725 Y133.36 E15.51677
G1 X120.94 Y133.221 E15.54329
G1 X120.265 Y133.04 E15.56653
G1 X119.51 Y132.765 E15.59325
G1 X118.878 Y132.47 E15.61645
G1 X118.176 Y132.063 E15.64344
G1 X117.598 Y131.656 E15.66695
G1 X116.993 Y131.148 E15.69323
G1 X116.512 Y130.667 E15.71585
G1 X115.995 Y130.05 E15.74263
G1 X115.586 Y129.465 E15.76637
G1 X115.182 Y128.763 E15.79331
G1 X114.897 Y128.148 E15.81585
G1 X114.679 Y127.582 E15.83602
G1 X114.581 Y127.213 E15.84872
G1 X114.353 Y126.188 E15.88365
G1 X114.26 Y125.589 E15.90381
G1 X114.243 Y125.187 E15.91719
G1 X114.244 Y122.234 E16.01541
G1 X114.314 Y121.436 E16.04205
G1 X114.432 Y120.768 E16.06461
G1 X114.643 Y119.985 E16.09159
G1 X114.889 Y119.314 E16.11536
G1 X115.224 Y118.597 E16.14168
G1 X115.564 Y118.008 E16.1643
G1 X116.027 Y117.348 E16.19111
G1 X116.486 Y116.802 E16.21484
G1 X117.063 Y116.227 E16.24193
G1 X117.323 Y116.011 E16.25317
G1 X118.482 Y110.114 E16.45306
G1 X118.563 Y109.774 E16.46469
G1 X119.011 Y108.156 E16.52053
G1 X119.277 Y107.435 E16.54609
G1 X119.987 Y105.916 E16.60185
G1 X120.371 Y105.247 E16.62751
G1 X121.331 Y103.859 E16.68364
G1 X121.828 Y103.257 E16.70961
